!!!!SEGMENT: pl-cz--iii-194--006_elsner-jozef--missa-f-op-41-agnus.krn
!!!cenid: 18xx:245
!!!COM: Elsner, Józef
!!!COM-rismID:
!!!CDT: 1769/06/01-1854/04/18
!!!CNT: Polish
!!!OPR: Missa F op. 41
!!!OTL: Agnus
!!!OMV: 006
!!!PDT: 1836
!!!AGN: Sacred; Mass
!!!SMS-siglum: PL-CZ
!!!SMS-shelfmark: III-194
!!!SMS-shelfwork: 001-006 M
!!!NIFC-rismSourceID:
!!!NIFC-islandoraID: pl-cz:35936
!!!URL-pdf-islandora: https://repozytorium.nifc.pl/islandora/object/pl-cz%3A35936/datastream/PDF/view
!!!URL-scan:
!!!ONB-nifc: UWAGA: części Mszy: Kyrie, Gloria, Credo, Sanctus, Benedictus, Agnus, Dona nobis
!!!AIN: 1 alto 1 bass 1 cbass 1 cello 2 clars 2 clrno 2 cor 2 fagot 2 flt 2 oboe 1 organ 1 soprn 1 tenor 1 timpa 1 tromt 1 viola 2 violn
!!!OMD:
!!!OMD-mod: Adagio
!!!key: F
**kern	**kern	**dynam	**kern	**dynam	**kern	**dynam	**kern	**dynam	**kern	**dynam	**kern	**text	**kern	**text	**kern	**text	**kern	**text	**kern	**kern	**dynam	**kern	**dynam	**kern	**dynam	**kern	**dynam	**kern	**dynam	**kern	**dynam	**kern	**dynam	**kern	**dynam	**kern	**dynam	**kern	**dynam	**kern	**dynam	**kern	**dynam	**kern
*part23	*part23	*part23	*part22	*part22	*part21	*part21	*part20	*part20	*part19	*part19	*part18	*part18	*part17	*part17	*part16	*part16	*part15	*part15	*part14	*part13	*part13	*part12	*part12	*part11	*part11	*part10	*part10	*part9	*part9	*part8	*part8	*part7	*part7	*part6	*part6	*part5	*part5	*part4	*part4	*part3	*part3	*part2	*part2	*part1
*staff24	*staff23	*	*staff22	*	*staff21	*	*staff20	*	*staff19	*	*staff18	*staff18	*staff17	*staff17	*staff16	*staff16	*staff15	*staff15	*staff14	*staff13	*	*staff12	*	*staff11	*	*staff10	*	*staff9	*	*staff8	*	*staff7	*	*staff6	*	*staff5	*	*staff4	*	*staff3	*	*staff2	*	*staff1
*I"Organo.	*I"Organo.	*	*I"Violoncello et Baſso.	*	*I"Viola.	*	*I"Violino 2do	*	*I"Violino Imo	*	*I"Basso.	*	*I"Tenore.	*	*I"Alto.	*	*I"Canto	*	*I"Tympano in C. F.	*I"Trombono	*	*I"Clarino 2do in B.	*	*I"Clarino 1mo in B.	*	*I"Corno 2do in F.	*	*I"Corno 1mo in F.	*	*I"Fagotto 2do	*	*I"Fagotto Imo	*	*I"Clarinetto 2do in B.	*	*I"Clarinetto Imo in B.	*	*I"Oboe 2do	*	*I"Oboe 1mo	*	*I"Flauto 2do	*	*I"[Flauto I]
*mI"Organo	*mI"Organo	*	*mI"Violoncello ed Contrabasso	*	*mI"Viola	*	*mI"Violino II	*	*mI"Violino I	*	*mI"Basso	*	*mI"Tenore	*	*mI"Alto	*	*mI"Soprano	*	*mI"Timpani	*mI"Trombone	*	*mI"Clarino II in Bb	*	*mI"Clarino I in Bb	*	*mI"Corno II in F	*	*mI"Corno I in F	*	*mI"Fagotto II	*	*mI"Fagotto I	*	*mI"Clarinetto II in Bb	*	*mI"Clarinetto I in Bb	*	*mI"Oboe II	*	*mI"Oboe I	*	*mI"Flauto II	*	*mI"Flauto I
*I'org	*I'org	*	*I'vlc|cb	*	*I'vla	*	*I'vl 2	*	*I'vl 1	*	*I'B	*	*I'T	*	*I'A	*	*I'S	*	*I'timp	*I'trb	*	*I'clno 2 in B|b	*	*I'clno 1 in B|b	*	*I'cor 2 in F	*	*I'cor 1 in F	*	*I'fag 2	*	*I'fag 1	*	*I'cl 2 in B|b	*	*I'cl 1 in B|b	*	*I'ob 2	*	*I'ob 1	*	*I'fl 2	*	*I'fl 1
*Iorgan	*Iorgan	*	*Icello&Icbass	*	*Iviola	*	*Ivioln	*	*Ivioln	*	*Ibass	*	*Itenor	*	*Ialto	*	*Isoprn	*	*Itimpa	*Itromt	*	*Iclrno	*	*Iclrno	*	*Icor	*	*Icor	*	*Ifagot	*	*Ifagot	*	*Iclars	*	*Iclars	*	*Ioboe	*	*Ioboe	*	*Iflt	*	*Iflt
*ICklav	*ICklav	*	*ICstr	*	*ICstr	*	*ICstr	*	*ICstr	*	*ICvox	*	*ICvox	*	*ICvox	*	*ICvox	*	*ICidio	*ICbras	*	*ICbras	*	*ICbras	*	*ICbras	*	*ICbras	*	*ICww	*	*ICww	*	*ICww	*	*ICww	*	*ICww	*	*ICww	*	*ICww	*	*ICww
*	*	*	*	*	*	*	*	*	*	*	*IGcoro	*	*IGcoro	*	*IGcoro	*	*IGcoro	*	*	*	*	*	*	*	*	*	*	*	*	*	*	*	*	*	*	*	*	*	*	*	*	*	*	*
*	*	*	*	*	*	*	*	*	*	*	*	*	*	*	*	*	*	*	*	*	*	*	*	*	*	*	*	*	*	*	*	*	*	*	*	*	*	*	*	*	*	*	*	*tacet
*clefF4	*clefG2	*	*clefF4	*	*clefC3	*	*clefG2	*	*clefG2	*	*clefF4	*	*clefC4	*	*clefC3	*	*clefC1	*	*clefF4	*clefF4	*	*clefG2	*	*clefG2	*	*clefG2	*	*clefG2	*	*clefF4	*	*clefF4	*	*clefG2	*	*clefG2	*	*clefG2	*	*clefG2	*	*clefG2	*	*
*	*	*	*	*	*	*	*	*	*	*	*	*	*mclefGv2	*	*mclefG2	*	*mclefG2	*	*	*	*	*	*	*	*	*	*	*	*	*	*	*	*	*	*	*	*	*	*	*	*	*	*	*
*	*	*	*	*	*	*	*	*	*	*	*	*	*	*	*	*	*	*	*ITrd-3c-5	*	*	*ITrd1c2	*	*ITrd1c2	*	*ITrd4c7	*	*ITrd4c7	*	*	*	*	*	*ITrd1c2	*	*ITrd1c2	*	*	*	*	*	*	*	*
*k[b-]	*k[b-]	*	*k[b-]	*	*k[b-]	*	*k[b-]	*	*k[b-]	*	*k[b-]	*	*k[b-]	*	*k[b-]	*	*k[b-]	*	*k[b-]	*k[b-]	*	*k[b-e-]	*	*k[b-e-]	*	*k[b-]	*	*k[b-]	*	*k[b-]	*	*k[b-]	*	*k[b-]	*	*k[b-]	*	*k[b-]	*	*k[b-]	*	*k[b-]	*	*
*F:	*F:	*	*F:	*	*F:	*	*F:	*	*F:	*	*F:	*	*F:	*	*F:	*	*F:	*	*	*F:	*	*	*	*	*	*	*	*	*	*F:	*	*F:	*	*F:	*	*F:	*	*F:	*	*F:	*	*F:	*	*
*M3/4	*M3/4	*	*M3/4	*	*M3/4	*	*M3/4	*	*M3/4	*	*M3/4	*	*M3/4	*	*M3/4	*	*M3/4	*	*M3/4	*M3/4	*	*M3/4	*	*M3/4	*	*M3/4	*	*M3/4	*	*M3/4	*	*M3/4	*	*M3/4	*	*M3/4	*	*M3/4	*	*M3/4	*	*M3/4	*	*
=1	=1	=1	=1	=1	=1	=1	=1	=1	=1	=1	=1	=1	=1	=1	=1	=1	=1	=1	=1	=1	=1	=1	=1	=1	=1	=1	=1	=1	=1	=1	=1	=1	=1	=1	=1	=1	=1	=1	=1	=1	=1	=1	=1	=1
*	*	*	*	*	*	*	*	*below	*	*	*	*	*	*	*	*	*	*	*	*	*	*	*	*	*	*	*	*	*	*	*	*	*	*	*	*	*	*	*	*	*	*	*	*
!	!LO:TX:a:t=1.:mod=	!	!LO:TX:a:t=Adagio.:mod=	!	!LO:TX:a:t=Adagio.:mod=	!	!	!	!LO:TX:a:t=Adagio.:mod=	!	!LO:TX:a:t=Adagio:mod=	!	!LO:TX:a:t=Adagio:mod=	!	!LO:TX:a:t=Adagio.:mod=	!	!LO:TX:a:t=Adagio.:mod=	!	!LO:TX:a:t=36.:mod=	!LO:TX:a:t=14.:mod=	!	!LO:TX:a:t=13.:mod=	!	!LO:TX:a:t=13.:mod=	!	!LO:TX:a:t=13.:mod=	!	!LO:TX:a:t=13.:mod=	!	!LO:TX:a:t=1.:mod=	!	!LO:TX:a:t=1.:mod=	!	!LO:TX:a:t=Adagio.:mod=	!	!LO:TX:a:t=Adagio.:mod=	!	!LO:TX:a:t=13.:mod=	!	!LO:TX:a:t=5.:mod=	!	!LO:TX:a:t=Adagio.:mod=	!	!
!	!LO:TX:a:t=Adagio.:mod=	!	!LO:TX:a:t=1.:mod=	!	!LO:TX:a:t=1.:mod=	!	!LO:TX:a:t=Adagio:mod=	!	!LO:TX:a:t=2.:mod=	!	!LO:TX:a:t=8.:mod=	!	!LO:TX:a:t=10.:mod=	!	!LO:TX:a:t=8.:mod=	!	!LO:TX:a:t=10.:mod=	!	!LO:TX:a:t=Adagio.:mod=	!LO:TX:a:t=Adagio.:mod=	!	!LO:TX:a:t=Adagio.:mod=	!	!LO:TX:a:t=Adagio:mod=	!	!LO:TX:a:t=Adagio:mod=	!	!LO:TX:a:t=Adagio:mod=	!	!LO:TX:a:t=Adagio.:mod=	!	!LO:TX:a:t=Adagio.:mod=	!	!LO:TX:a:t=13.:mod=	!	!LO:TX:a:t=5.:mod=	!	!LO:TX:a:t=Adagio:mod=	!	!LO:TX:a:t=Adagio:mod=	!	!LO:TX:a:t=13.:mod=	!	!LO:TX:t=P:problem=zgodnie z RISM "fl 1 missing"
2.r	2.r	.	2.r	.	2.r	.	8d/	p	1.r	.	0.r	.	0.r	.	0.r	.	0.r	.	2.r	0.r	.	0.r	.	0.r	.	2.r	.	2.r	.	2.r	.	2.r	.	2.r	.	0.r	.	2.r	.	0.r	.	2.r	.	2.ryy
.	.	.	.	.	.	.	4d/	.	.	.	.	.	.	.	.	.	.	.	.	.	.	.	.	.	.	.	.	.	.	.	.	.	.	.	.	.	.	.	.	.	.	.	.	.
.	.	.	.	.	.	.	4d/	.	.	.	.	.	.	.	.	.	.	.	.	.	.	.	.	.	.	.	.	.	.	.	.	.	.	.	.	.	.	.	.	.	.	.	.	.
.	.	.	.	.	.	.	8d/	.	.	.	.	.	.	.	.	.	.	.	.	.	.	.	.	.	.	.	.	.	.	.	.	.	.	.	.	.	.	.	.	.	.	.	.	.
=2	=2	=2	=2	=2	=2	=2	=2	=2	=2	=2	=2	=2	=2	=2	=2	=2	=2	=2	=2	=2	=2	=2	=2	=2	=2	=2	=2	=2	=2	=2	=2	=2	=2	=2	=2	=2	=2	=2	=2	=2	=2	=2	=2	=2
*	*	*	*	*	*	*below	*	*	*	*	*	*	*	*	*	*	*	*	*	*	*	*	*	*	*	*	*	*	*	*	*	*	*	*	*	*	*	*	*	*	*	*	*	*
!	!	!LO:MO:mod=!LO&colon;DY&colon;ed=brack	!	!	!	!	!	!	!	!	!	!	!	!	!	!	!	!	!	!	!	!	!	!	!	!	!	!	!	!	!	!	!	!	!	!	!	!	!	!	!	!	!	!
!	!	!null	!	!	!	!	!	!	!	!	!	!	!	!	!	!	!	!	!	!	!	!	!	!	!	!	!	!	!	!	!	!	!	!	!	!	!	!	!	!	!	!	!	!
!	!	!LO:MO:null:mod=p	!	!	!	!	!	!	!	!	!	!	!	!	!	!	!	!	!	!	!	!	!	!	!	!	!	!	!	!	!	!	!	!	!	!	!	!	!	!	!	!	!	!
4D\	4d/	.	(4D\	p	(4d\	p	8d/	.	.	.	.	.	.	.	.	.	.	.	2.r	.	.	.	.	.	.	2.r	.	2.r	.	(4D\	.	(4D\	.	2.r	.	.	.	2.r	.	.	.	2.r	.	2.ryy
.	.	.	.	.	.	.	4d/	.	.	.	.	.	.	.	.	.	.	.	.	.	.	.	.	.	.	.	.	.	.	.	.	.	.	.	.	.	.	.	.	.	.	.	.	.
4F\	4f/	.	4F\	.	4f\	.	.	.	.	.	.	.	.	.	.	.	.	.	.	.	.	.	.	.	.	.	.	.	.	4F\	.	4F\	.	.	.	.	.	.	.	.	.	.	.	.
.	.	.	.	.	.	.	4d/	.	.	.	.	.	.	.	.	.	.	.	.	.	.	.	.	.	.	.	.	.	.	.	.	.	.	.	.	.	.	.	.	.	.	.	.	.
4GG#X\	4G#X</	.	4GG#X/	.	4G#X/	.	.	.	.	.	.	.	.	.	.	.	.	.	.	.	.	.	.	.	.	.	.	.	.	4GG#X/	.	4GG#X/	.	.	.	.	.	.	.	.	.	.	.	.
.	.	.	.	.	.	.	8d/	.	.	.	.	.	.	.	.	.	.	.	.	.	.	.	.	.	.	.	.	.	.	.	.	.	.	.	.	.	.	.	.	.	.	.	.	.
=3	=3	=3	=3	=3	=3	=3	=3	=3	=3	=3	=3	=3	=3	=3	=3	=3	=3	=3	=3	=3	=3	=3	=3	=3	=3	=3	=3	=3	=3	=3	=3	=3	=3	=3	=3	=3	=3	=3	=3	=3	=3	=3	=3	=3
*	*	*	*	*	*	*	*	*	*	*below	*	*	*	*	*	*	*	*	*	*	*	*	*	*	*	*	*	*	*	*	*	*	*	*	*	*	*	*	*	*	*	*	*	*
4AA\	4A</	.	4AA/)	.	4A/)	.	8d/	.	8e/	p	.	.	.	.	.	.	.	.	2.r	.	.	.	.	.	.	2.r	.	2.r	.	4AA/)	.	4AA/)	.	2.r	.	.	.	2.r	.	.	.	2.r	.	2.ryy
.	.	.	.	.	.	.	4d/	.	4e/	.	.	.	.	.	.	.	.	.	.	.	.	.	.	.	.	.	.	.	.	.	.	.	.	.	.	.	.	.	.	.	.	.	.	.
4r	4r<<	.	4r	.	4r	.	.	.	.	.	.	.	.	.	.	.	.	.	.	.	.	.	.	.	.	.	.	.	.	4r	.	4r	.	.	.	.	.	.	.	.	.	.	.	.
.	.	.	.	.	.	.	4c#X/	.	4e/	.	.	.	.	.	.	.	.	.	.	.	.	.	.	.	.	.	.	.	.	.	.	.	.	.	.	.	.	.	.	.	.	.	.	.
4r	4r<<	.	4r	.	4r	.	.	.	.	.	.	.	.	.	.	.	.	.	.	.	.	.	.	.	.	.	.	.	.	4r	.	4r	.	.	.	.	.	.	.	.	.	.	.	.
.	.	.	.	.	.	.	8c#/	.	8e/	.	.	.	.	.	.	.	.	.	.	.	.	.	.	.	.	.	.	.	.	.	.	.	.	.	.	.	.	.	.	.	.	.	.	.
*	*	*	*	*	*	*	*custos	*	*	*	*	*	*	*	*	*	*	*	*	*	*	*	*	*	*	*	*	*	*	*	*	*	*	*	*	*	*	*	*	*	*	*	*	*
=4	=4	=4	=4	=4	=4	=4	=4	=4	=4	=4	=4	=4	=4	=4	=4	=4	=4	=4	=4	=4	=4	=4	=4	=4	=4	=4	=4	=4	=4	=4	=4	=4	=4	=4	=4	=4	=4	=4	=4	=4	=4	=4	=4	=4
!	!	!	!	!	!	!	!LO:PB:g=original	!	!	!	!	!	!	!	!	!	!	!	!	!	!	!	!	!	!	!	!	!	!	!	!	!	!	!	!	!	!	!	!	!	!	!	!	!
4E\	4e/	.	(4E\	.	(4e\	.	8c#X/	.	8e/	.	.	.	.	.	.	.	.	.	2.r	.	.	.	.	.	.	2.r	.	2.r	.	(4E\	.	(4E\	.	2.r	.	.	.	2.r	.	.	.	2.r	.	2.ryy
.	.	.	.	.	.	.	4c#/	.	4e/	.	.	.	.	.	.	.	.	.	.	.	.	.	.	.	.	.	.	.	.	.	.	.	.	.	.	.	.	.	.	.	.	.	.	.
4G\	4g/	.	4G\	.	4g\	.	.	.	.	.	.	.	.	.	.	.	.	.	.	.	.	.	.	.	.	.	.	.	.	4G\	.	4G\	.	.	.	.	.	.	.	.	.	.	.	.
.	.	.	.	.	.	.	4g/	.	4e/	.	.	.	.	.	.	.	.	.	.	.	.	.	.	.	.	.	.	.	.	.	.	.	.	.	.	.	.	.	.	.	.	.	.	.
!	!	!	!	!	!LO:SIC:s=4A	!	!	!	!	!	!	!	!	!	!	!	!	!	!	!	!	!	!	!	!	!	!	!	!	!	!	!LO:SIC:s=4AA	!	!	!	!	!	!	!	!	!	!	!	!
4AA\	4A</	.	4AA/	.	4A/)	.	.	.	.	.	.	.	.	.	.	.	.	.	.	.	.	.	.	.	.	.	.	.	.	4AA/	.	4AA/)	.	.	.	.	.	.	.	.	.	.	.	.
.	.	.	.	.	.	.	8g/	.	8e/	.	.	.	.	.	.	.	.	.	.	.	.	.	.	.	.	.	.	.	.	.	.	.	.	.	.	.	.	.	.	.	.	.	.	.
*	*	*	*custos	*	*	*	*	*	*	*	*	*	*	*	*	*	*	*	*	*	*	*	*	*	*	*	*	*	*	*	*	*	*	*	*	*	*	*	*	*	*	*	*	*
=5	=5	=5	=5	=5	=5	=5	=5	=5	=5	=5	=5	=5	=5	=5	=5	=5	=5	=5	=5	=5	=5	=5	=5	=5	=5	=5	=5	=5	=5	=5	=5	=5	=5	=5	=5	=5	=5	=5	=5	=5	=5	=5	=5	=5
!LO:PB:g=original	!	!	!LO:PB:g=original	!	!	!	!	!	!	!	!	!	!	!	!	!	!	!	!	!	!	!	!	!	!	!	!	!	!	!	!	!	!LO:PB:g=original	!	!	!	!	!	!	!	!	!	!	!
*	*^	*	*	*	*	*	*	*	*	*	*	*	*	*	*	*	*	*	*	*	*	*	*	*	*	*	*	*	*	*	*	*	*	*	*	*	*	*	*	*	*	*	*	*
!LO:SIC:s=4BB-	!LO:SIC:s=4B-<	!LO:MO:mod=2.ryyyy	!	!LO:SIC:s=4BB-)	!	!LO:SIC:s=4B-)	!	!	!	!	!	!	!	!	!	!	!	!	!	!	!	!	!	!	!	!	!	!	!	!	!LO:SIC:s=4BB-)	!	!LO:SIC:s=4BB-)	!	!	!	!	!	!	!	!	!	!	!	!
4BB-X\	4B-X</	4B-<\	.	4BB-X/)	.	4B-X/	.	8f/	.	8e/	.	0.r	.	0.r	.	0.r	.	0.r	.	2.r	0.r	.	0.r	.	0.r	.	2.r	.	2.r	.	4BB-X/)	.	4BB-X/	.	2.r	.	2.r	.	2.r	.	2.r	.	2.r	.	2.ryy
.	.	.	.	.	.	.	.	4f/	.	4e/	.	.	.	.	.	.	.	.	.	.	.	.	.	.	.	.	.	.	.	.	.	.	.	.	.	.	.	.	.	.	.	.	.	.	.
!	!	!LO:MO:mod=.	!	!	!	!	!	!	!	!	!	!	!	!	!	!	!	!	!	!	!	!	!	!	!	!	!	!	!	!	!	!	!	!	!	!	!	!	!	!	!	!	!	!	!
4r	4r<	2r<yy	.	4r	.	4r	.	.	.	.	.	.	.	.	.	.	.	.	.	.	.	.	.	.	.	.	.	.	.	.	4r	.	4r	.	.	.	.	.	.	.	.	.	.	.	.
.	.	.	.	.	.	.	.	4f/	.	4d/	.	.	.	.	.	.	.	.	.	.	.	.	.	.	.	.	.	.	.	.	.	.	.	.	.	.	.	.	.	.	.	.	.	.	.
4r	4r<	.	.	4r	.	4r	.	.	.	.	.	.	.	.	.	.	.	.	.	.	.	.	.	.	.	.	.	.	.	.	4r	.	4r	.	.	.	.	.	.	.	.	.	.	.	.
.	.	.	.	.	.	.	.	8f/	.	8d/	.	.	.	.	.	.	.	.	.	.	.	.	.	.	.	.	.	.	.	.	.	.	.	.	.	.	.	.	.	.	.	.	.	.	.
*	*v	*v	*	*	*	*	*	*	*	*	*	*	*	*	*	*	*	*	*	*	*	*	*	*	*	*	*	*	*	*	*	*	*	*	*	*	*	*	*	*	*	*	*	*	*
=6	=6	=6	=6	=6	=6	=6	=6	=6	=6	=6	=6	=6	=6	=6	=6	=6	=6	=6	=6	=6	=6	=6	=6	=6	=6	=6	=6	=6	=6	=6	=6	=6	=6	=6	=6	=6	=6	=6	=6	=6	=6	=6	=6	=6
!	!	!	!	!	!LO:PB:g=original	!	!	!	!LO:PB:g=original	!	!	!	!	!	!	!	!	!	!	!	!	!	!	!	!	!	!	!	!	!LO:PB:g=original	!	!	!	!	!	!	!	!	!	!	!	!	!	!
4F\	8r	.	(4F\	.	(4f\	.	8f/	.	8d/	.	.	.	.	.	.	.	.	.	2.r	.	.	.	.	.	.	2.r	.	2.r	.	(4F\	.	(4F\	.	2.r	.	8r	.	2.r	.	8r	.	2.r	.	2.ryy
.	4aa\	.	.	.	.	.	4f/	.	4d/	.	.	.	.	.	.	.	.	.	.	.	.	.	.	.	.	.	.	.	.	.	.	.	.	.	.	4aa\	.	.	.	4aa\	.	.	.	.
4A\	.	.	4A\	.	4a\	.	.	.	.	.	.	.	.	.	.	.	.	.	.	.	.	.	.	.	.	.	.	.	.	4A\	.	4A\	.	.	.	.	.	.	.	.	.	.	.	.
.	4dd\	.	.	.	.	.	4f#X/	.	4a/	.	.	.	.	.	.	.	.	.	.	.	.	.	.	.	.	.	.	.	.	.	.	.	.	.	.	4dd\	.	.	.	4dd\	.	.	.	.
!	!	!	!LO:SIC:s=4C)	!	!	!	!	!	!	!	!	!	!	!	!	!	!	!	!	!	!	!	!	!	!	!	!	!	!	!	!	!LO:SIC:s=4C)	!	!	!	!	!	!	!	!	!	!	!	!
4C/	.	.	4C/	.	4c\)	.	.	.	.	.	.	.	.	.	.	.	.	.	.	.	.	.	.	.	.	.	.	.	.	4C/)	.	4C/	.	.	.	.	.	.	.	.	.	.	.	.
.	8ff#X\	.	.	.	.	.	8d/	.	8a/	.	.	.	.	.	.	.	.	.	.	.	.	.	.	.	.	.	.	.	.	.	.	.	.	.	.	8ff#X\	.	.	.	8ff#X\	.	.	.	.
=7	=7	=7	=7	=7	=7	=7	=7	=7	=7	=7	=7	=7	=7	=7	=7	=7	=7	=7	=7	=7	=7	=7	=7	=7	=7	=7	=7	=7	=7	=7	=7	=7	=7	=7	=7	=7	=7	=7	=7	=7	=7	=7	=7	=7
*	*	*	*	*	*	*	*	*	*	*	*	*	*	*	*	*	*	*	*	*	*	*	*	*	*	*	*	*	*	*	*	*	*	*	*	*2\right	*	*	*	*	*	*	*	*
!	!	!	!LO:SIC:s=4BB-	!	!	!	!	!	!	!	!	!	!	!	!	!	!	!	!	!	!	!	!	!	!	!	!	!	!	!	!	!	!	!	!	!	!	!	!	!	!	!	!	!
4BB-/	2gg\	.	4BB-/)	.	2B-/	.	[2.d/	.	8g/	.	.	.	.	.	.	.	.	.	2.r	.	.	.	.	.	.	2.r	.	2.r	.	2BB-/	.	2BB-/	.	2.r	.	2gg\	.	2.r	.	2gg\	.	2.r	.	2.ryy
.	.	.	.	.	.	.	.	.	4g/	.	.	.	.	.	.	.	.	.	.	.	.	.	.	.	.	.	.	.	.	.	.	.	.	.	.	.	.	.	.	.	.	.	.	.
4r	.	.	4r	.	.	.	.	.	.	.	.	.	.	.	.	.	.	.	.	.	.	.	.	.	.	.	.	.	.	.	.	.	.	.	.	.	.	.	.	.	.	.	.	.
.	.	.	.	.	.	.	.	.	4g/	.	.	.	.	.	.	.	.	.	.	.	.	.	.	.	.	.	.	.	.	.	.	.	.	.	.	.	.	.	.	.	.	.	.	.
4AA/	4ffn\	.	4AA/	.	4A/	.	.	.	.	.	.	.	.	.	.	.	.	.	.	.	.	.	.	.	.	.	.	.	.	4AA/	.	4AA/	.	.	.	4ffn\	.	.	.	4ffn\	.	.	.	.
.	.	.	.	.	.	.	.	.	8fn/	.	.	.	.	.	.	.	.	.	.	.	.	.	.	.	.	.	.	.	.	.	.	.	.	.	.	.	.	.	.	.	.	.	.	.
=8	=8	=8	=8	=8	=8	=8	=8	=8	=8	=8	=8	=8	=8	=8	=8	=8	=8	=8	=8	=8	=8	=8	=8	=8	=8	=8	=8	=8	=8	=8	=8	=8	=8	=8	=8	=8	=8	=8	=8	=8	=8	=8	=8	=8
4GG/	2ee\	.	4GG/	.	2B-/ 2G/	.	2d/]	.	8e/	.	.	.	.	.	.	.	.	.	2.r	.	.	.	.	.	.	2.r	.	2.r	.	2GG/	.	2GG/	.	2.r	.	2ee\	.	2.r	.	2ee\	.	2.r	.	2.ryy
.	.	.	.	.	.	.	.	.	4e/	.	.	.	.	.	.	.	.	.	.	.	.	.	.	.	.	.	.	.	.	.	.	.	.	.	.	.	.	.	.	.	.	.	.	.
4r	.	.	4r	.	.	.	.	.	.	.	.	.	.	.	.	.	.	.	.	.	.	.	.	.	.	.	.	.	.	.	.	.	.	.	.	.	.	.	.	.	.	.	.	.
.	.	.	.	.	.	.	.	.	4e/	.	.	.	.	.	.	.	.	.	.	.	.	.	.	.	.	.	.	.	.	.	.	.	.	.	.	.	.	.	.	.	.	.	.	.
4AA/	4aa\	.	4AA/	.	4A/	.	4c#X/	.	.	.	.	.	.	.	.	.	.	.	.	.	.	.	.	.	.	.	.	.	.	4AA/	.	4AA/	.	.	.	4aa\	.	.	.	4aa\	.	.	.	.
.	.	.	.	.	.	.	.	.	8e/	.	.	.	.	.	.	.	.	.	.	.	.	.	.	.	.	.	.	.	.	.	.	.	.	.	.	.	.	.	.	.	.	.	.	.
*	*	*	*	*	*	*	*custos	*	*	*	*	*	*	*	*	*	*	*	*	*	*	*	*	*	*	*	*	*	*	*	*	*	*	*	*	*	*	*	*	*	*	*	*	*
=9	=9	=9	=9	=9	=9	=9	=9	=9	=9	=9	=9	=9	=9	=9	=9	=9	=9	=9	=9	=9	=9	=9	=9	=9	=9	=9	=9	=9	=9	=9	=9	=9	=9	=9	=9	=9	=9	=9	=9	=9	=9	=9	=9	=9
!	!	!	!	!	!	!	!LO:PB:g=original	!	!	!	!	!	!	!	!	!	!	!	!	!	!	!	!	!	!	!	!	!	!	!	!	!	!	!	!	!	!	!	!	!	!	!	!	!
*	*	*	*	*	*	*	*	*	*	*	*	*	*	*	*2\right	*	*	*	*	*	*	*	*	*	*	*	*	*	*	*	*	*2\right	*	*	*	*	*	*	*	*	*	*	*	*
!	!	!	!	!	!	!	!	!	!	!	!	!	!	!	!	!	!	!	!	!	!	!	!	!	!	!	!	!	!	!	!	!LO:SIC:s=2D	!	!	!	!	!	!	!	!	!	!	!	!
8D/	2dd\	.	8D\	.	8r	.	8r	.	2d/	.	4r	.	1.r	.	2.d\	A-	1.r	.	2.r	0.r	.	0.r	.	0.r	.	2.r	.	2.r	.	2D\	.	2D\)	.	2.r	.	2dd\	.	2.r	.	2dd\	.	2.r	.	2.ryy
8r	.	.	8r	.	8F/	.	8d/	.	.	.	.	.	.	.	.	.	.	.	.	.	.	.	.	.	.	.	.	.	.	.	.	.	.	.	.	.	.	.	.	.	.	.	.	.
*	*	*	*	*	*	*	*	*	*	*	*2\right	*	*	*	*	*	*	*	*	*	*	*	*	*	*	*	*	*	*	*	*	*	*	*	*	*	*	*	*	*	*	*	*	*
8D/	.	.	8D\	.	8r	.	8r	.	.	.	[2D\	A-	.	.	.	.	.	.	.	.	.	.	.	.	.	.	.	.	.	.	.	.	.	.	.	.	.	.	.	.	.	.	.	.
8r	.	.	8r	.	8F/	.	8d/	.	.	.	.	.	.	.	.	.	.	.	.	.	.	.	.	.	.	.	.	.	.	.	.	.	.	.	.	.	.	.	.	.	.	.	.	.
8D/	4r	.	8D\	.	8r	.	8r	.	4r	.	.	.	.	.	.	.	.	.	.	.	.	.	.	.	.	.	.	.	.	4r	.	4r	.	.	.	4r	.	.	.	4r	.	.	.	.
8r	.	.	8r	.	8F/	.	8d/	.	.	.	.	.	.	.	.	.	.	.	.	.	.	.	.	.	.	.	.	.	.	.	.	.	.	.	.	.	.	.	.	.	.	.	.	.
=10	=10	=10	=10	=10	=10	=10	=10	=10	=10	=10	=10	=10	=10	=10	=10	=10	=10	=10	=10	=10	=10	=10	=10	=10	=10	=10	=10	=10	=10	=10	=10	=10	=10	=10	=10	=10	=10	=10	=10	=10	=10	=10	=10	=10
!LO:PB:g=original	!	!	!LO:PB:g=original	!	!	!	!	!	!	!	!	!	!	!	!	!	!	!	!	!	!	!	!	!	!	!	!	!	!	!	!	!	!	!	!	!LO:PB:g=original	!	!	!	!LO:PB:g=original	!	!	!	!
!	!	!	!	!	!	!	!	!	!LO:TX:a:t=1.:mod=	!	!	!	!	!	!	!	!	!	!	!	!	!	!	!	!	!	!	!	!	!LO:TX:a:t=4.:mod=	!	!LO:TX:a:t=4.:mod=	!	!	!	!LO:TX:a:t=4.:mod=	!	!	!	!LO:TX:a:t=4.:mod=	!	!	!	!
8D/	2.r	.	8D/	.	8r	.	8r	.	2.r	.	4D/]	.	.	.	2.e\	-gnus	.	.	2.r	.	.	.	.	.	.	2.r	.	2.r	.	0.r	.	0.r	.	2.r	.	0.r	.	2.r	.	0.r	.	2.r	.	2.ryy
8r	.	.	8r	.	8G/	.	8e/	.	.	.	.	.	.	.	.	.	.	.	.	.	.	.	.	.	.	.	.	.	.	.	.	.	.	.	.	.	.	.	.	.	.	.	.	.
8C/	.	.	8C/	.	8r	.	8r	.	.	.	4C/	.	.	.	.	.	.	.	.	.	.	.	.	.	.	.	.	.	.	.	.	.	.	.	.	.	.	.	.	.	.	.	.	.
8r	.	.	8r	.	8G/	.	8e/	.	.	.	.	.	.	.	.	.	.	.	.	.	.	.	.	.	.	.	.	.	.	.	.	.	.	.	.	.	.	.	.	.	.	.	.	.
8BB-/	.	.	8BB-/	.	8r	.	8r	.	.	.	4BB-/	-gnus	.	.	.	.	.	.	.	.	.	.	.	.	.	.	.	.	.	.	.	.	.	.	.	.	.	.	.	.	.	.	.	.
8r	.	.	8r	.	8G/	.	8e/	.	.	.	.	.	.	.	.	.	.	.	.	.	.	.	.	.	.	.	.	.	.	.	.	.	.	.	.	.	.	.	.	.	.	.	.	.
*	*	*	*	*	*	*	*	*	*custos	*	*	*	*	*	*	*	*	*	*	*	*	*	*	*	*	*	*	*	*	*	*	*	*	*	*	*	*	*	*	*	*	*	*	*
=11	=11	=11	=11	=11	=11	=11	=11	=11	=11	=11	=11	=11	=11	=11	=11	=11	=11	=11	=11	=11	=11	=11	=11	=11	=11	=11	=11	=11	=11	=11	=11	=11	=11	=11	=11	=11	=11	=11	=11	=11	=11	=11	=11	=11
!	!	!	!	!	!	!	!	!	!LO:PB:g=original	!	!	!	!	!	!	!	!	!	!	!	!	!	!	!	!	!	!	!	!	!	!	!	!	!	!	!	!	!	!	!	!	!	!	!
8AA/	2.r	.	8AA/	.	8r	.	8r	.	8r	.	2.AA/	A-	[>2.F/	A-	(2f\	A-	4r	.	2.r	.	.	.	.	.	.	2.r	.	2.r	.	.	.	.	.	2.r	.	.	.	2.r	.	.	.	2.r	.	2.ryy
8r	.	.	8r	.	8F/	.	8f/	.	8cc\	.	.	.	.	.	.	.	.	.	.	.	.	.	.	.	.	.	.	.	.	.	.	.	.	.	.	.	.	.	.	.	.	.	.	.
*	*	*	*	*	*	*	*	*	*	*	*	*	*	*	*	*	*2\right	*	*	*	*	*	*	*	*	*	*	*	*	*	*	*	*	*	*	*	*	*	*	*	*	*	*	*
8AA/	.	.	8AA/	.	8r	.	8r	.	8r	.	.	.	.	.	.	.	[2cc\	A-	.	.	.	.	.	.	.	.	.	.	.	.	.	.	.	.	.	.	.	.	.	.	.	.	.	.
8r	.	.	8r	.	8F/	.	8f/	.	8cc\	.	.	.	.	.	.	.	.	.	.	.	.	.	.	.	.	.	.	.	.	.	.	.	.	.	.	.	.	.	.	.	.	.	.	.
8AA/	.	.	8AA/	.	8r	.	8r	.	8r	.	.	.	.	.	8e\L	.	.	.	.	.	.	.	.	.	.	.	.	.	.	.	.	.	.	.	.	.	.	.	.	.	.	.	.	.
8r	.	.	8r	.	8F/	.	8f/	.	8cc\	.	.	.	.	.	8f\J)	.	.	.	.	.	.	.	.	.	.	.	.	.	.	.	.	.	.	.	.	.	.	.	.	.	.	.	.	.
=12	=12	=12	=12	=12	=12	=12	=12	=12	=12	=12	=12	=12	=12	=12	=12	=12	=12	=12	=12	=12	=12	=12	=12	=12	=12	=12	=12	=12	=12	=12	=12	=12	=12	=12	=12	=12	=12	=12	=12	=12	=12	=12	=12	=12
!	!	!	!	!	!LO:PB:g=original	!	!	!	!	!	!	!	!	!	!	!	!	!	!	!	!	!	!	!	!	!	!	!	!	!	!	!	!	!	!	!	!	!	!	!	!	!	!	!
8BB-/	2.r	.	8BB-/	.	8r	.	8r	.	8r	.	2.BB-/	-gnus	2F/]	.	2.d\	-gnus	4cc\]	.	2.r	.	.	.	.	.	.	2.r	.	2.r	.	.	.	.	.	2.r	.	.	.	2.r	.	.	.	2.r	.	2.ryy
8r	.	.	8r	.	8F/	.	8d/	.	8cc\	.	.	.	.	.	.	.	.	.	.	.	.	.	.	.	.	.	.	.	.	.	.	.	.	.	.	.	.	.	.	.	.	.	.	.
8BB-/	.	.	8BB-/	.	8r	.	8r	.	8r	.	.	.	.	.	.	.	2b-\	-gnus	.	.	.	.	.	.	.	.	.	.	.	.	.	.	.	.	.	.	.	.	.	.	.	.	.	.
8r	.	.	8r	.	8F/	.	8d/	.	8b-\	.	.	.	.	.	.	.	.	.	.	.	.	.	.	.	.	.	.	.	.	.	.	.	.	.	.	.	.	.	.	.	.	.	.	.
8BB-/	.	.	8BB-/	.	8r	.	8r	.	8r	.	.	.	4G/	-gnus	.	.	.	.	.	.	.	.	.	.	.	.	.	.	.	.	.	.	.	.	.	.	.	.	.	.	.	.	.	.
8r	.	.	8r	.	8F/	.	8d/	.	8b-\	.	.	.	.	.	.	.	.	.	.	.	.	.	.	.	.	.	.	.	.	.	.	.	.	.	.	.	.	.	.	.	.	.	.	.
*	*	*	*	*	*	*	*custos	*	*	*	*	*	*	*	*	*	*	*	*	*	*	*	*	*	*	*	*	*	*	*	*	*	*	*	*	*	*	*	*	*	*	*	*	*
=13	=13	=13	=13	=13	=13	=13	=13	=13	=13	=13	=13	=13	=13	=13	=13	=13	=13	=13	=13	=13	=13	=13	=13	=13	=13	=13	=13	=13	=13	=13	=13	=13	=13	=13	=13	=13	=13	=13	=13	=13	=13	=13	=13	=13
!	!	!	!	!	!	!	!	!	!	!	!LO:PB:g=original	!	!	!	!	!	!	!	!	!	!	!	!	!	!	!	!	!	!	!	!	!	!	!	!	!	!	!	!	!	!	!	!	!
*	*	*	*	*	*	*	*	*	*	*	*	*	*2\right	*	*	*	*	*	*	*	*	*	*	*	*	*	*	*	*	*	*	*	*	*	*	*	*	*	*	*	*	*	*	*
8C/	2.r	.	8C/	.	8r	.	8r	.	8r	.	2.C/	De-	2A\	De-	2.c\	De-	2a\	De-	2.r	1.r	.	2.r	.	2.r	.	2.r	.	2.r	.	.	.	.	.	2.r	.	.	.	2.r	.	.	.	2.r	.	2.ryy
8r	.	.	8r	.	8A/	.	8c/	.	8a/	.	.	.	.	.	.	.	.	.	.	.	.	.	.	.	.	.	.	.	.	.	.	.	.	.	.	.	.	.	.	.	.	.	.	.
8C/	.	.	8C/	.	8r	.	8r	.	8r	.	.	.	.	.	.	.	.	.	.	.	.	.	.	.	.	.	.	.	.	.	.	.	.	.	.	.	.	.	.	.	.	.	.	.
8r	.	.	8r	.	8F/	.	8c/	.	8a/	.	.	.	.	.	.	.	.	.	.	.	.	.	.	.	.	.	.	.	.	.	.	.	.	.	.	.	.	.	.	.	.	.	.	.
8C/	.	.	8C/	.	8r	.	8r	.	8r	.	.	.	8.B-\L	.	.	.	8.e/L	.	.	.	.	.	.	.	.	.	.	.	.	.	.	.	.	.	.	.	.	.	.	.	.	.	.	.
8r	.	.	8r	.	8G/	.	8B-/	.	8e/	.	.	.	.	.	.	.	.	.	.	.	.	.	.	.	.	.	.	.	.	.	.	.	.	.	.	.	.	.	.	.	.	.	.	.
.	.	.	.	.	.	.	.	.	.	.	.	.	16A\Jk	.	.	.	16f/Jk	.	.	.	.	.	.	.	.	.	.	.	.	.	.	.	.	.	.	.	.	.	.	.	.	.	.	.
=14	=14	=14	=14	=14	=14	=14	=14	=14	=14	=14	=14	=14	=14	=14	=14	=14	=14	=14	=14	=14	=14	=14	=14	=14	=14	=14	=14	=14	=14	=14	=14	=14	=14	=14	=14	=14	=14	=14	=14	=14	=14	=14	=14	=14
!LO:PB:g=original	!	!	!LO:PB:g=original	!	!	!	!	!	!	!	!	!	!	!	!LO:PB:g=original	!	!	!	!	!	!	!	!	!	!	!	!	!	!	!	!	!	!	!	!	!	!	!	!	!	!	!	!	!
*	*	*below	*2\right	*	*	*	*	*	*	*	*	*	*	*	*	*	*	*	*	*	*	*	*	*	*	*	*	*	*	*	*	*	*	*	*	*	*	*	*	*	*	*	*	*
2F\	8r	.	2F\	.	2F/	.	2A/	.	2f/	.	2F\	-i	2A\	-i	2c\	-i	2f/	-i	2.r	.	.	8r	.	8r	.	8r	.	8r	.	8r	.	8r	.	8r	.	8r	.	8r	.	8r	.	8r	.	2.ryy
.	4ff\ 4f\	<	.	.	.	.	.	.	.	.	.	.	.	.	.	.	.	.	.	.	.	4f/	<	4f/	<	4f\	<	4f\	<	4F\	<	4F\	<	4f/	<	4ff\	<	4f/	<	4ff\	<	4ff\	<	.
.	4ff\ 4f\	.	.	.	.	.	.	.	.	.	.	.	.	.	.	.	.	.	.	.	.	4f/	.	4f/	.	4f\	.	4f\	.	4F\	.	4F\	.	4f/	.	4ff\	.	4f/	.	4ff\	.	4ff\	.	.
4r	.	.	4r	.	4r	.	4r	.	4r	.	4F\	qui	4F/	qui	4f\	qui	4f/	qui	.	.	.	.	.	.	.	.	.	.	.	.	.	.	.	.	.	.	.	.	.	.	.	.	.	.
!	!	!LO:MO:mod=[[	!	!	!	!	!	!	!	!	!	!	!	!	!	!	!	!	!	!	!	!	!LO:MO:mod=[[	!	!LO:MO:mod=[[	!	!LO:MO:mod=[[	!	!LO:MO:mod=[[	!	!LO:MO:mod=[[	!	!LO:MO:mod=[[	!	!LO:MO:mod=[[	!	!LO:MO:mod=[[	!	!LO:MO:mod=[[	!	!LO:MO:mod=[[	!	!LO:MO:mod=[[	!
.	8ff\ 8f\	[	.	.	.	.	.	.	.	.	.	.	.	.	.	.	.	.	.	.	.	8f/	[	8f/	[	8f\	[	8f\	[	8F\	[	8F\	[	8f/	[	8ff\	[	8f/	[	8ff\	[	8ff\	[	.
=15	=15	=15	=15	=15	=15	=15	=15	=15	=15	=15	=15	=15	=15	=15	=15	=15	=15	=15	=15	=15	=15	=15	=15	=15	=15	=15	=15	=15	=15	=15	=15	=15	=15	=15	=15	=15	=15	=15	=15	=15	=15	=15	=15	=15
!	!	!	!	!	!	!	!	!	!LO:PB:g=original	!	!	!	!LO:PB:g=original	!	!	!	!LO:PB:g=original	!	!	!	!	!	!	!	!	!	!	!	!	!	!	!LO:PB:g=original	!	!	!	!	!	!	!	!	!	!	!	!
8.BB-/L	4dd/ 4b-/ 4f/	f	8.BB-/L	ff	8.B-\L	ff	8.dd/L 8.f/	ff	8.bb-\L 8.dd\	ff	8.BB-/L	tol-	4B-\	tol-	4f\	tol-	4dd\	tol-	2.r	8.BB-/L	f	4d/	ff	4b-\	ff	4f\	ff	4f\	ff	4BB-/	ff	4BB-/	ff	4b-\	ff	4dd\	ff	4b-\	ff	4dd\	ff	4ff\	ff	2.ryy
16D/Jk	.	.	16D/Jk	.	16d\Jk	.	16dd/Jk 16f/	.	16bb-\Jk 16dd\	.	16D/Jk	.	.	.	.	.	.	.	.	16D/Jk	.	.	.	.	.	.	.	.	.	.	.	.	.	.	.	.	.	.	.	.	.	.	.	.
4F\	4cc/ 4a/ 4f/	.	4F\	.	4f\	.	4cc/ 4f/	.	4aa\ 4cc\	.	4F\	-lis	4A\	-lis	4f\	-lis	4cc\	-lis	.	4F\	.	4f/	.	4cc\	.	4f\	.	4f\	.	4F\	.	4F\	.	4a\	.	4cc\	.	4a/	.	4cc\	.	4ff\	.	.
4r	4r	.	4r	.	4r	.	4r	.	4r	.	4F\	qui	4c\	qui	4f\	qui	4a\	qui	.	4r	.	4r	.	4r	.	4r	.	4r	.	4r	.	4r	.	4r	.	4r	.	4r	.	4r	.	4r	.	.
*	*	*	*	*	*	*	*	*	*	*	*	*	*	*	*	*	*	*	*	*	*	*	*	*	*	*	*	*	*	*	*	*	*	*	*	*	*	*	*	*	*	*custos	*	*
=16	=16	=16	=16	=16	=16	=16	=16	=16	=16	=16	=16	=16	=16	=16	=16	=16	=16	=16	=16	=16	=16	=16	=16	=16	=16	=16	=16	=16	=16	=16	=16	=16	=16	=16	=16	=16	=16	=16	=16	=16	=16	=16	=16	=16
!	!	!	!	!	!	!	!	!	!	!	!	!	!	!	!	!	!	!	!	!	!	!	!	!	!	!	!	!	!	!LO:PB:g=original	!	!	!	!	!	!	!	!	!	!	!	!LO:PB;g=original	!	!
!	!	!	!	!	!	!	!	!	!	!	!	!	!	!	!	!	!	!	!	!LO:TX:a:t=3.:mod=	!	!LO:TX:a:t=3.:mod=	!	!LO:TX:a:t=3.:mod=	!	!LO:TX:a:t=3.:mod=	!	!LO:TX:a:t=3.:mod=	!	!LO:TX:a:t=3.:mod=	!	!LO:TX:a:t=3.:mod=	!	!LO:TX:a:t=3.:mod=	!	!LO:TX:a:t=3.:mod=	!	!LO:TX:a:t=3.:mod=	!	!LO:TX:a:t=3.:mod=	!	!LO:TX:a:t=3.:mod=	!	!
4r	2.r	.	4r	.	4r	.	4r	.	4r	.	4G\	tol-	4c\	tol-	4e\	tol-	8.cc\L	tol-	2.r	1.r	.	1.r	.	1.r	.	1.r	.	1.r	.	1.r	.	1.r	.	1.r	.	1.r	.	1.r	.	1.r	.	1.r	.	2.ryy
.	.	.	.	.	.	.	.	.	.	.	.	.	.	.	.	.	16b-\Jk	.	.	.	.	.	.	.	.	.	.	.	.	.	.	.	.	.	.	.	.	.	.	.	.	.	.	.
4r	.	.	4r	.	4r	.	4r	.	4r	.	4F\	-lis	4c\	-lis	4f\	-lis	4a\	-lis	.	.	.	.	.	.	.	.	.	.	.	.	.	.	.	.	.	.	.	.	.	.	.	.	.	.
!	!	!LO:DY:b=2	!	!	!	!	!	!	!	!	!	!	!	!	!	!	!	!LO:MO:mod=[pec-	!	!	!	!	!	!	!	!	!	!	!	!	!	!	!	!	!	!	!	!	!	!	!	!	!	!
8E\	.	p	8E\	p	8E/	p	8r	.	8r	.	4E\	pec-	4c\	pec-	4c\	pec-	4g\	qui	.	.	.	.	.	.	.	.	.	.	.	.	.	.	.	.	.	.	.	.	.	.	.	.	.	.
8r	.	.	8r	.	8r	.	8c/	p	8g/	p	.	.	.	.	.	.	.	.	.	.	.	.	.	.	.	.	.	.	.	.	.	.	.	.	.	.	.	.	.	.	.	.	.	.
*	*	*	*	*	*custos	*	*	*	*	*	*	*	*	*	*	*	*	*	*	*	*	*	*	*	*	*	*	*	*	*	*	*	*	*	*	*	*	*	*	*	*	*	*	*
=17	=17	=17	=17	=17	=17	=17	=17	=17	=17	=17	=17	=17	=17	=17	=17	=17	=17	=17	=17	=17	=17	=17	=17	=17	=17	=17	=17	=17	=17	=17	=17	=17	=17	=17	=17	=17	=17	=17	=17	=17	=17	=17	=17	=17
!	!	!	!	!	!	!	!	!	!	!	!	!	!	!	!	!	!LO:SIC:s=(4a	!LO:MO:mod=-ca-	!	!	!	!	!	!	!	!	!	!	!	!	!	!	!	!	!	!	!	!	!	!	!	!	!	!
8F\	2.r	.	8F\	.	8F/	.	8r	.	8r	.	2F\	-ca-	(4c\	-ca-	(4c\	-ca-	4a\	tol-	2.r	.	.	.	.	.	.	.	.	.	.	.	.	.	.	.	.	.	.	.	.	.	.	.	.	2.ryy
8r	.	.	8r	.	8r	.	8c/	.	8a/	.	.	.	.	.	.	.	.	.	.	.	.	.	.	.	.	.	.	.	.	.	.	.	.	.	.	.	.	.	.	.	.	.	.	.
!	!	!	!	!	!	!	!	!	!	!	!	!	!	!	!	!LO:MO:mod=.	!LO:SIC:s=4b)	!LO:MO:mod=.	!	!	!	!	!	!	!	!	!	!	!	!	!	!	!	!	!	!	!	!	!	!	!	!	!	!
8F\	.	.	8F\	.	8F/	.	8r	.	8r	.	.	.	4G/)	.	4d\)	-ta	4bn\	-lis	.	.	.	.	.	.	.	.	.	.	.	.	.	.	.	.	.	.	.	.	.	.	.	.	.	.
8r	.	.	8r	.	8r	.	8d/	.	8bn/	.	.	.	.	.	.	.	.	.	.	.	.	.	.	.	.	.	.	.	.	.	.	.	.	.	.	.	.	.	.	.	.	.	.	.
!	!	!	!	!	!	!	!	!	!	!	!	!	!	!	!	!LO:MO:mod=-[ta	!	!LO:MO:mod=-ta	!	!	!	!	!	!	!	!	!	!	!	!	!	!	!	!	!	!	!	!	!	!	!	!	!	!
8E\	.	.	8E\	.	8E/	.	8r	.	8r	.	4E\	-ta	4G/	-ta	4c\	mun-	4cc\	pec-	.	.	.	.	.	.	.	.	.	.	.	.	.	.	.	.	.	.	.	.	.	.	.	.	.	.
8r	.	.	8r	.	8r	.	8g/	.	8cc/	.	.	.	.	.	.	.	.	.	.	.	.	.	.	.	.	.	.	.	.	.	.	.	.	.	.	.	.	.	.	.	.	.	.	.
*	*	*	*custos	*	*	*	*	*	*	*	*	*	*	*	*	*	*	*	*	*	*	*	*	*	*	*	*	*	*	*	*	*	*	*	*	*	*	*	*	*	*	*	*	*
=18	=18	=18	=18	=18	=18	=18	=18	=18	=18	=18	=18	=18	=18	=18	=18	=18	=18	=18	=18	=18	=18	=18	=18	=18	=18	=18	=18	=18	=18	=18	=18	=18	=18	=18	=18	=18	=18	=18	=18	=18	=18	=18	=18	=18
!	!	!	!LO:PB:g=original	!	!	!	!LO:PB:g=original	!	!	!	!	!	!	!	!LO:SIC:s=[2f	!LO:MO:mod=mun]-	!LO:SIC:s=(4cc	!LO:MO:mod=mun]-	!	!	!	!	!	!	!	!	!	!	!	!	!	!	!	!	!	!	!	!	!	!	!	!	!	!
8D/	2.r	.	8D\	.	8D/	.	8r	.	8r	.	[2D/	mun-	[2F/	mun-	2f\	-di	4cc\	-ca-	2.r	2.r	.	2.r	.	2.r	.	2.r	.	2.r	.	2.r	.	2.r	.	2.r	.	2.r	.	2.r	.	2.r	.	2.r	.	2.ryy
8r	.	.	8r	.	8r	.	8f/	.	8cc\	.	.	.	.	.	.	.	.	.	.	.	.	.	.	.	.	.	.	.	.	.	.	.	.	.	.	.	.	.	.	.	.	.	.	.
!	!	!	!	!	!	!	!	!	!	!	!	!	!	!	!	!	!LO:SIC:s=4a)	!LO:MO:mod=.	!	!	!	!	!	!	!	!	!	!	!	!	!	!	!	!	!	!	!	!	!	!	!	!	!	!
8D/	.	.	8D\	.	8D/	.	8r	.	8r	.	.	.	.	.	.	.	4a\	-ta	.	.	.	.	.	.	.	.	.	.	.	.	.	.	.	.	.	.	.	.	.	.	.	.	.	.
8r	.	.	8r	.	8r	.	8f/	.	8a/	.	.	.	.	.	.	.	.	.	.	.	.	.	.	.	.	.	.	.	.	.	.	.	.	.	.	.	.	.	.	.	.	.	.	.
!	!	!	!	!	!	!	!	!	!	!	!	!	!	!	!LO:SIC:s=8.fL]	!LO:MO:mod=.	!	!LO:MO:mod=.	!	!	!	!	!	!	!	!	!	!	!	!	!	!	!	!	!	!	!	!	!	!	!	!	!	!
8D/	.	.	8D\	.	8D/	.	8r	.	8r	.	8.D/L]	.	8.F/L]	.	8.f\L	mun-	8.bn\L	mun-	.	.	.	.	.	.	.	.	.	.	.	.	.	.	.	.	.	.	.	.	.	.	.	.	.	.
8r	.	.	8r	.	8r	.	8f/	.	8bn\	.	.	.	.	.	.	.	.	.	.	.	.	.	.	.	.	.	.	.	.	.	.	.	.	.	.	.	.	.	.	.	.	.	.	.
.	.	.	.	.	.	.	.	.	.	.	16C/Jk	.	16G/Jk	.	16e\Jk	.	16cc\Jk	.	.	.	.	.	.	.	.	.	.	.	.	.	.	.	.	.	.	.	.	.	.	.	.	.	.	.
*	*	*	*	*	*	*	*	*	*custos	*	*	*	*	*	*	*	*	*	*	*	*	*	*	*	*	*	*	*	*	*	*	*	*	*	*	*	*	*	*	*	*	*	*	*
=19	=19	=19	=19	=19	=19	=19	=19	=19	=19	=19	=19	=19	=19	=19	=19	=19	=19	=19	=19	=19	=19	=19	=19	=19	=19	=19	=19	=19	=19	=19	=19	=19	=19	=19	=19	=19	=19	=19	=19	=19	=19	=19	=19	=19
!LO:LB:g=original	!	!	!	!	!	!	!	!	!	!	!LO:PB:g=original	!	!	!	!	!	!	!	!	!	!	!	!	!	!	!LO:PB:g=original	!	!LO:PB:g=original	!	!	!	!	!	!LO:PB:g=original	!	!	!	!LO:PB:g=original	!	!	!	!	!	!
8C/	4r	.	8C/	.	8C/	.	8r	.	8r	.	2C/	-di	2G/	-di	2e\	-di	2cc\	-di	2.r	4r	.	4r	.	4r	.	4r	.	4r	.	4r	.	4r	.	4r	.	4r	.	4r	.	4r	.	4r	.	2.ryy
8r	.	.	8r	.	8r	.	8e/	.	8cc\	.	.	.	.	.	.	.	.	.	.	.	.	.	.	.	.	.	.	.	.	.	.	.	.	.	.	.	.	.	.	.	.	.	.	.
8C/	4r	.	8C/	.	8c/	.	8r	.	8r	.	.	.	.	.	.	.	.	.	.	4r	.	4r	.	4r	.	4r	.	4r	.	4r	.	4r	.	4r	.	4r	.	4r	.	4r	.	4r	.	.
8r	.	.	8r	.	8r	.	8e/	.	8cc\	.	.	.	.	.	.	.	.	.	.	.	.	.	.	.	.	.	.	.	.	.	.	.	.	.	.	.	.	.	.	.	.	.	.	.
!	!	!	!	!	!LO:SIC:s=8B-	!	!	!	!	!	!	!	!	!	!	!	!	!	!	!	!	!	!	!	!	!	!	!	!	!	!	!	!	!	!	!	!	!	!	!	!	!	!	!
8BB-/	8.dd/L 8.b-/ 8.f/	f	8BB-/	f	8B-X/	f	8r	.	8r	.	8.BB-/	mi-	8.B-\	mi-	8.f\	mi-	8.dd\	mi-	.	4BB-/	f	8.d/L	f	8.b-\L	f	8.f\L	f	8.f\L	f	8.BB-/L	f	8.B-\L	f	8.dd\L	f	8.bb-\L	f	8.dd\L	f	8.bb-\L	f	8.ff\L	f	.
8r	.	.	8r	.	8r	.	8f/	f	8dd\	f	.	.	.	.	.	.	.	.	.	.	.	.	.	.	.	.	.	.	.	.	.	.	.	.	.	.	.	.	.	.	.	.	.	.
.	16dd/Jk 16b-/ 16f/	.	.	.	.	.	.	.	.	.	16BB-/	-se-	16B-\	-se-	16f\	-se-	16dd\	-se-	.	.	.	16d/Jk	.	16b-\Jk	.	16f\Jk	.	16f\Jk	.	16BB-/Jk	.	16B-\Jk	.	16dd\Jk	.	16bb-\Jk	.	16dd\Jk	.	16bb-\Jk	.	16ff\Jk	.	.
=20	=20	=20	=20	=20	=20	=20	=20	=20	=20	=20	=20	=20	=20	=20	=20	=20	=20	=20	=20	=20	=20	=20	=20	=20	=20	=20	=20	=20	=20	=20	=20	=20	=20	=20	=20	=20	=20	=20	=20	=20	=20	=20	=20	=20
!	!	!	!	!	!	!	!	!	!	!	!	!	!	!	!LO:PB:g=original	!	!LO:PB:g=original	!	!	!	!	!LO:PB:g=original	!	!LO:PB:g=original	!	!	!	!	!	!	!	!	!	!	!	!	!	!	!	!	!	!	!	!
!	!	!	!	!	!	!	!	!	!	!	!	!	!	!	!	!	!	!	!	!	!	!	!	!	!LO:MO:mod=!LO&colon;DY&colon;ed=brack	!	!	!	!	!	!LO:MO:mod=!LO&colon;DY&colon;ed=brack	!	!	!	!	!	!	!	!	!	!	!	!	!
!	!	!	!	!	!	!	!	!	!	!	!	!	!	!	!	!	!	!	!	!	!	!	!	!	!null	!	!	!	!	!	!null	!	!	!	!	!	!	!	!	!	!	!	!	!
!	!	!	!	!	!	!	!	!	!	!	!	!	!	!	!	!	!	!	!	!	!	!	!	!	!LO:MO:null:mod=p	!	!	!	!	!	!LO:MO:null:mod=p	!	!	!	!	!	!	!	!	!	!	!	!	!
8BB-/	4.dd/ 4.b-/ 4.f/	p	8BB-/	p	8B-/	p	8r	.	8r	.	4BB-/	-re-	4B-\	-re-	4f\	-re-	4dd\	-re-	2.r	4BB-/	p	4d/	p	4b-\	.	4f\	p	4f\	p	4BB-/	.	4.B-\	p	4dd\	p	4.bb-\	p	4dd\	p	4.bb-\	p	4ff\	p	2.ryy
8r	.	.	8r	.	8r	.	8f/	p	8dd\	p	.	.	.	.	.	.	.	.	.	.	.	.	.	.	.	.	.	.	.	.	.	.	.	.	.	.	.	.	.	.	.	.	.	.
8BB-/	.	.	8BB-/	.	8B-/	.	8r	.	8r	.	8BB-/	-re	8B-\	-re	8f\	-re	8dd\	-re	.	4r	.	4r	.	4r	.	4r	.	4r	.	4r	.	.	.	4r	.	.	.	4r	.	.	.	4r	.	.
8r	8a\L	.	8r	.	8r	.	8f/	.	8dd\	.	8r	.	8r	.	8r	.	8r	.	.	.	.	.	.	.	.	.	.	.	.	.	.	8A\L	.	.	.	8a\L	.	.	.	8a\L	.	.	.	.
!	!	!	!	!	!	!	!	!	!	!	!	!	!LO:PB:g=original	!	!	!	!	!	!	!	!	!	!	!	!	!	!	!	!	!	!	!	!	!	!	!	!	!	!	!	!	!	!	!
8D/	8b-\	.	8D\	.	8D/	.	8r	.	8r	.	8.D\	mi-	8.d\	mi-	8.f\	mi-	8.b-\	mi-	.	4r	.	4r	.	4r	.	4r	.	4r	.	4r	.	8B-\	.	4r	.	8b-\	.	4r	.	8b-\	.	4r	.	.
8r	8dd\J	.	8r	.	8r	.	8f/	.	8b-X\	.	.	.	.	.	.	.	.	.	.	.	.	.	.	.	.	.	.	.	.	.	.	8d\J	.	.	.	8dd\J	.	.	.	8dd\J	.	.	.	.
.	.	.	.	.	.	.	.	.	.	.	16D\	-se-	16d\	-se-	16f\	-se-	16b-\	-se-	.	.	.	.	.	.	.	.	.	.	.	.	.	.	.	.	.	.	.	.	.	.	.	.	.	.
*	*	*	*custos	*	*custos	*	*	*	*	*	*	*	*	*	*	*	*	*	*	*	*	*	*	*	*	*	*	*	*	*	*	*	*	*	*	*	*	*	*custos	*	*	*	*	*
=21	=21	=21	=21	=21	=21	=21	=21	=21	=21	=21	=21	=21	=21	=21	=21	=21	=21	=21	=21	=21	=21	=21	=21	=21	=21	=21	=21	=21	=21	=21	=21	=21	=21	=21	=21	=21	=21	=21	=21	=21	=21	=21	=21	=21
!	!	!	!	!	!	!	!	!	!	!	!	!	!	!	!	!	!	!	!	!LO:PB:g=original	!	!	!	!	!	!	!	!	!	!	!	!	!	!	!	!LO:PB:g=original	!	!	!	!	!	!	!	!
!	!	!	!	!	!	!	!	!	!	!	!	!	!	!	!	!	!	!	!	!LO:TX:a:t=16.:mod=	!	!LO:TX:a:t=15.:mod=	!	!LO:TX:a:t=15:mod=	!	!LO:TX:a:t=15.:mod=	!	!LO:TX:a:t=15.:mod=	!	!LO:TX:a:t=3.:mod=	!	!	!	!LO:TX:a:t=15.:mod=	!	!	!	!LO:TX:a:t=15.:mod=	!	!LO:TX:t=P:problem=dopisana belka	!	!LO:TX:a:t=15.:mod=	!	!
8D#X\	8cc/L	.	8D#X\	.	8D#X/	.	8r	.	8r	.	2D#X\	-re-	2c\	-re-	2f#X\	-re-	2a\	-re-	2.r	0.r	.	0.r	.	0.r	.	2.r	.	2.r	.	1.r	.	8c\L	.	2.r	.	8cc\L	.	2.r	.	8cc\L	.	2.r	.	2.ryy
8r	8g#X/	.	8r	.	8r	.	8f#X/	.	8a/	.	.	.	.	.	.	.	.	.	.	.	.	.	.	.	.	.	.	.	.	.	.	8G#X\	.	.	.	8g#X\	.	.	.	8g#X\	.	.	.	.
8D#\	8a/	.	8D#\	.	8D#/	.	8r	.	8r	.	.	.	.	.	.	.	.	.	.	.	.	.	.	.	.	.	.	.	.	.	.	8A\	.	.	.	8a\	.	.	.	8a\	.	.	.	.
8r	8cc/	.	8r	.	8r	.	8f#/	.	8a/	.	.	.	.	.	.	.	.	.	.	.	.	.	.	.	.	.	.	.	.	.	.	8c\	.	.	.	8cc\	.	.	.	8cc\	.	.	.	.
!	!	!	!	!	!	!	!	!	!	!	!	!	!	!	!	!	!	!	!	!	!	!	!	!	!	!	!	!	!	!	!	!	!	!	!	!	!	!	!	!LO:MO:null:mod=8qcc@	!	!	!	!
.	.	.	.	.	.	.	.	.	.	.	.	.	.	.	.	.	.	.	.	.	.	.	.	.	.	.	.	.	.	.	.	8qc/	.	.	.	8qcc/	.	.	.	.	.	.	.	.
8E\	8bn/	.	8E\	.	8E/	.	8r	.	8r	.	4E\	-re	4c\	-re	4e\	-re	4a\	-re	.	.	.	.	.	.	.	.	.	.	.	.	.	8Bn\	.	.	.	8bX\	.	.	.	8bn\	.	.	.	.
8r	8a/J	.	8r	.	8r	.	8c/	.	8a/	.	.	.	.	.	.	.	.	.	.	.	.	.	.	.	.	.	.	.	.	.	.	8A\J	.	.	.	8a\J	.	.	.	8a\J	.	.	.	.
*	*	*	*	*	*	*	*custos	*	*custos	*	*	*	*	*	*	*	*	*	*	*	*	*	*	*	*	*	*	*	*	*	*	*	*	*	*	*	*	*	*	*	*	*	*	*
=22	=22	=22	=22	=22	=22	=22	=22	=22	=22	=22	=22	=22	=22	=22	=22	=22	=22	=22	=22	=22	=22	=22	=22	=22	=22	=22	=22	=22	=22	=22	=22	=22	=22	=22	=22	=22	=22	=22	=22	=22	=22	=22	=22	=22
!	!	!	!	!	!	!	!LO:PB:g=original	!	!LO:LB:g=original	!	!	!	!	!	!	!	!	!	!	!	!	!	!	!	!	!	!	!	!	!	!	!LO:PB:g=original	!	!	!	!	!	!	!	!LO:SIC:s=2e	!	!	!	!
8E\	2e/	.	8E\	.	8E/	.	8r	.	8r	.	2.E\	no-	2.Bn\	no-	2.e\	no-	4a\	no-	2.r	.	.	.	.	.	.	2.r	.	2.r	.	.	.	2E\	.	2.r	.	2eX/	.	2.r	.	2en/	.	2.r	.	2.ryy
8r	.	.	8r	.	8r	.	8Bn/	.	8a/	.	.	.	.	.	.	.	.	.	.	.	.	.	.	.	.	.	.	.	.	.	.	.	.	.	.	.	.	.	.	.	.	.	.	.
8E\	.	.	8E\	.	8E/	.	8r	.	8r	.	.	.	.	.	.	.	8g#X\L	.	.	.	.	.	.	.	.	.	.	.	.	.	.	.	.	.	.	.	.	.	.	.	.	.	.	.
8r	.	.	8r	.	8r	.	8B/	.	8a/	.	.	.	.	.	.	.	8f#X\J	.	.	.	.	.	.	.	.	.	.	.	.	.	.	.	.	.	.	.	.	.	.	.	.	.	.	.
8E\	4r	.	8E\	.	8E/	.	8r	.	8r	.	.	.	.	.	.	.	4g#\	.	.	.	.	.	.	.	.	.	.	.	.	.	.	4r	.	.	.	4r	.	.	.	4r	.	.	.	.
8r	.	.	8r	.	8r	.	8B/	.	8g#X/	.	.	.	.	.	.	.	.	.	.	.	.	.	.	.	.	.	.	.	.	.	.	.	.	.	.	.	.	.	.	.	.	.	.	.
=23	=23	=23	=23	=23	=23	=23	=23	=23	=23	=23	=23	=23	=23	=23	=23	=23	=23	=23	=23	=23	=23	=23	=23	=23	=23	=23	=23	=23	=23	=23	=23	=23	=23	=23	=23	=23	=23	=23	=23	=23	=23	=23	=23	=23
!	!	!	!	!	!	!	!	!	!	!	!	!	!	!	!	!	!	!	!	!	!	!	!	!	!	!	!	!	!	!	!	!LO:TX:a:t=1.:mod=	!	!	!	!LO:TX:a:t=13.:mod=	!	!	!	!LO:TX:a:t=13.:mod=	!	!	!	!
2AA/	2.r	.	2AA/	.	2A/	.	8c/	.	2a/	.	2AA/	-bis	2c\	-bis	2e\	-bis	2a\	-bis	2.r	.	.	.	.	.	.	2.r	.	2.r	.	2.r	.	2.r	.	2.r	.	2.r	.	2.r	.	2.r	.	2.r	.	2.ryy
.	.	.	.	.	.	.	4a/	.	.	.	.	.	.	.	.	.	.	.	.	.	.	.	.	.	.	.	.	.	.	.	.	.	.	.	.	.	.	.	.	.	.	.	.	.
.	.	.	.	.	.	.	4a/	.	.	.	.	.	.	.	.	.	.	.	.	.	.	.	.	.	.	.	.	.	.	.	.	.	.	.	.	.	.	.	.	.	.	.	.	.
4r	.	.	4r	.	4r	.	.	.	4r	.	4r	.	4r	.	4r	.	4r	.	.	.	.	.	.	.	.	.	.	.	.	.	.	.	.	.	.	.	.	.	.	.	.	.	.	.
.	.	.	.	.	.	.	8a/	.	.	.	.	.	.	.	.	.	.	.	.	.	.	.	.	.	.	.	.	.	.	.	.	.	.	.	.	.	.	.	.	.	.	.	.	.
=24	=24	=24	=24	=24	=24	=24	=24	=24	=24	=24	=24	=24	=24	=24	=24	=24	=24	=24	=24	=24	=24	=24	=24	=24	=24	=24	=24	=24	=24	=24	=24	=24	=24	=24	=24	=24	=24	=24	=24	=24	=24	=24	=24	=24
!	!	!	!	!	!	!	!	!	!LO:TX:a:t=1.:mod=	!	!LO:TX:a:t=9.:mod=	!	!LO:TX:a:t=7.:mod=	!	!LO:TX:a:t=9.:mod=	!	!LO:TX:a:t=7.:mod=	!	!	!	!	!	!	!	!	!	!	!	!	!	!	!	!	!	!	!	!	!	!	!	!	!	!	!
4A\	4a/	.	(4A\	.	(>4A/	.	8a/	.	2.r	.	0.r	.	0.r	.	0.r	.	0.r	.	2.r	.	.	.	.	.	.	2.r	.	2.r	.	(4A\	.	(4A\	.	2.r	.	2.r	.	2.r	.	2.r	.	2.r	.	2.ryy
.	.	.	.	.	.	.	4a/	.	.	.	.	.	.	.	.	.	.	.	.	.	.	.	.	.	.	.	.	.	.	.	.	.	.	.	.	.	.	.	.	.	.	.	.	.
4c\	4cc\	.	4c\	.	4c/	.	.	.	.	.	.	.	.	.	.	.	.	.	.	.	.	.	.	.	.	.	.	.	.	4c\	.	4c\	.	.	.	.	.	.	.	.	.	.	.	.
.	.	.	.	.	.	.	4a/	.	.	.	.	.	.	.	.	.	.	.	.	.	.	.	.	.	.	.	.	.	.	.	.	.	.	.	.	.	.	.	.	.	.	.	.	.
!	!	!	!LO:SIC:s=4D#	!	!	!	!	!	!	!	!	!	!	!	!	!	!	!	!	!	!	!	!	!	!	!	!	!	!	!	!	!	!	!	!	!	!	!	!	!	!	!	!	!
4D#X\	4d#X/	.	4D#X/)	.	4D#X/	.	.	.	.	.	.	.	.	.	.	.	.	.	.	.	.	.	.	.	.	.	.	.	.	4D#X\	.	4D#X\	.	.	.	.	.	.	.	.	.	.	.	.
.	.	.	.	.	.	.	8a/	.	.	.	.	.	.	.	.	.	.	.	.	.	.	.	.	.	.	.	.	.	.	.	.	.	.	.	.	.	.	.	.	.	.	.	.	.
=25	=25	=25	=25	=25	=25	=25	=25	=25	=25	=25	=25	=25	=25	=25	=25	=25	=25	=25	=25	=25	=25	=25	=25	=25	=25	=25	=25	=25	=25	=25	=25	=25	=25	=25	=25	=25	=25	=25	=25	=25	=25	=25	=25	=25
!LO:PB:g=original	!	!	!LO:PB:g=original	!	!	!	!	!	!	!	!	!	!	!	!	!	!	!	!	!	!	!	!	!	!	!	!	!	!	!	!	!	!	!	!	!	!	!	!	!	!	!	!	!
!	!	!	!LO:SIC:s=4E)	!	!	!	!	!	!	!	!	!	!	!	!	!	!	!	!	!	!	!	!	!	!	!	!	!	!	!	!	!	!	!	!	!	!	!	!	!	!	!	!	!
4E\	4e/	.	4E\	.	4E/)	.	8a/	.	8bn\	.	.	.	.	.	.	.	.	.	2.r	0.r	.	0.r	.	0.r	.	2.r	.	2.r	.	4E\)	.	4E\)	.	2.r	.	2.r	.	2.r	.	2.r	.	2.r	.	2.ryy
.	.	.	.	.	.	.	4a/	.	4b\	.	.	.	.	.	.	.	.	.	.	.	.	.	.	.	.	.	.	.	.	.	.	.	.	.	.	.	.	.	.	.	.	.	.	.
4r	4r	.	4r	.	4r	.	.	.	.	.	.	.	.	.	.	.	.	.	.	.	.	.	.	.	.	.	.	.	.	4r	.	4r	.	.	.	.	.	.	.	.	.	.	.	.
.	.	.	.	.	.	.	4g#X/	.	4b\	.	.	.	.	.	.	.	.	.	.	.	.	.	.	.	.	.	.	.	.	.	.	.	.	.	.	.	.	.	.	.	.	.	.	.
4r	4r	.	4r	.	4r	.	.	.	.	.	.	.	.	.	.	.	.	.	.	.	.	.	.	.	.	.	.	.	.	4r	.	4r	.	.	.	.	.	.	.	.	.	.	.	.
.	.	.	.	.	.	.	8g#/	.	8b\	.	.	.	.	.	.	.	.	.	.	.	.	.	.	.	.	.	.	.	.	.	.	.	.	.	.	.	.	.	.	.	.	.	.	.
*	*	*	*	*	*custos	*	*	*	*	*	*	*	*	*	*	*	*	*	*	*	*	*	*	*	*	*	*	*	*	*	*	*	*	*	*	*	*	*	*	*	*	*	*	*
=26	=26	=26	=26	=26	=26	=26	=26	=26	=26	=26	=26	=26	=26	=26	=26	=26	=26	=26	=26	=26	=26	=26	=26	=26	=26	=26	=26	=26	=26	=26	=26	=26	=26	=26	=26	=26	=26	=26	=26	=26	=26	=26	=26	=26
!	!	!	!	!	!LO:PB:g=original	!	!	!	!	!	!	!	!	!	!	!	!	!	!	!	!	!	!	!	!	!	!	!	!	!	!	!	!	!	!	!	!	!	!	!	!	!	!	!
4Bn\	4bn\	.	(4Bn\	.	(4Bn/	.	8g#X/	.	8bn\	.	.	.	.	.	.	.	.	.	2.r	.	.	.	.	.	.	2.r	.	2.r	.	(4Bn\	.	(4Bn\	.	2.r	.	2.r	.	2.r	.	2.r	.	2.r	.	2.ryy
.	.	.	.	.	.	.	4g#/	.	4b\	.	.	.	.	.	.	.	.	.	.	.	.	.	.	.	.	.	.	.	.	.	.	.	.	.	.	.	.	.	.	.	.	.	.	.
4d\	4dd\	.	4d\	.	4d\	.	.	.	.	.	.	.	.	.	.	.	.	.	.	.	.	.	.	.	.	.	.	.	.	4d\	.	4d\	.	.	.	.	.	.	.	.	.	.	.	.
.	.	.	.	.	.	.	4dd\	.	4b\	.	.	.	.	.	.	.	.	.	.	.	.	.	.	.	.	.	.	.	.	.	.	.	.	.	.	.	.	.	.	.	.	.	.	.
4E\	4e/	.	4E\	.	4E/	.	.	.	.	.	.	.	.	.	.	.	.	.	.	.	.	.	.	.	.	.	.	.	.	4E\	.	4E\	.	.	.	.	.	.	.	.	.	.	.	.
.	.	.	.	.	.	.	8dd\	.	8b\	.	.	.	.	.	.	.	.	.	.	.	.	.	.	.	.	.	.	.	.	.	.	.	.	.	.	.	.	.	.	.	.	.	.	.
=27	=27	=27	=27	=27	=27	=27	=27	=27	=27	=27	=27	=27	=27	=27	=27	=27	=27	=27	=27	=27	=27	=27	=27	=27	=27	=27	=27	=27	=27	=27	=27	=27	=27	=27	=27	=27	=27	=27	=27	=27	=27	=27	=27	=27
!	!	!	!	!	!	!	!LO:PB:g=original	!	!	!	!	!	!	!	!	!	!	!	!	!	!	!	!	!	!	!	!	!	!	!LO:PB:g=original	!	!	!	!	!	!	!	!	!	!	!	!	!	!
4F\	4f/	.	4F\)	.	4F/)	.	8cc\	.	8bn\	.	.	.	.	.	.	.	.	.	2.r	.	.	.	.	.	.	2.r	.	2.r	.	4F\)	.	4F\)	.	2.r	.	2.r	.	2.r	.	2.r	.	2.r	.	2.ryy
.	.	.	.	.	.	.	4cc\	.	4b\	.	.	.	.	.	.	.	.	.	.	.	.	.	.	.	.	.	.	.	.	.	.	.	.	.	.	.	.	.	.	.	.	.	.	.
4r	4r	.	4r	.	4r	.	.	.	.	.	.	.	.	.	.	.	.	.	.	.	.	.	.	.	.	.	.	.	.	4r	.	4r	.	.	.	.	.	.	.	.	.	.	.	.
.	.	.	.	.	.	.	4cc\	.	4a/	.	.	.	.	.	.	.	.	.	.	.	.	.	.	.	.	.	.	.	.	.	.	.	.	.	.	.	.	.	.	.	.	.	.	.
4r	4r	.	4r	.	4r	.	.	.	.	.	.	.	.	.	.	.	.	.	.	.	.	.	.	.	.	.	.	.	.	4r	.	4r	.	.	.	.	.	.	.	.	.	.	.	.
.	.	.	.	.	.	.	8cc\	.	8a/	.	.	.	.	.	.	.	.	.	.	.	.	.	.	.	.	.	.	.	.	.	.	.	.	.	.	.	.	.	.	.	.	.	.	.
!	!	!	!LO:TX:b:t=V&colon;S&colon;:mod=	!	!	!	!	!	!	!	!	!	!	!	!	!	!	!	!	!	!	!	!	!	!	!	!	!	!	!	!	!	!	!	!	!	!	!	!	!	!	!	!	!
=28	=28	=28	=28	=28	=28	=28	=28	=28	=28	=28	=28	=28	=28	=28	=28	=28	=28	=28	=28	=28	=28	=28	=28	=28	=28	=28	=28	=28	=28	=28	=28	=28	=28	=28	=28	=28	=28	=28	=28	=28	=28	=28	=28	=28
!	!	!	!LO:LB:g=original	!	!	!	!	!	!LO:PB:g=original	!	!	!	!	!	!	!	!	!	!	!	!	!	!	!	!	!	!	!	!	!	!	!LO:PB:g=original	!	!	!	!	!	!	!	!	!	!	!	!
4c\	8r	.	(4c\	.	(4c\	.	8cc\	.	8a/	.	0.r	.	1.r	.	0.r	.	1.r	.	2.r	.	.	.	.	.	.	2.r	.	2.r	.	(4c\	.	(4c\	.	2.r	.	2.r	.	2.r	.	2.r	.	2.r	.	2.ryy
.	4ee\	.	.	.	.	.	4cc\	.	4a/	.	.	.	.	.	.	.	.	.	.	.	.	.	.	.	.	.	.	.	.	.	.	.	.	.	.	.	.	.	.	.	.	.	.	.
4e\	.	.	4e\	.	4e\	.	.	.	.	.	.	.	.	.	.	.	.	.	.	.	.	.	.	.	.	.	.	.	.	4e\	.	4e\	.	.	.	.	.	.	.	.	.	.	.	.
.	4a/	.	.	.	.	.	4cc#X\	.	4ee\	.	.	.	.	.	.	.	.	.	.	.	.	.	.	.	.	.	.	.	.	.	.	.	.	.	.	.	.	.	.	.	.	.	.	.
!	!	!	!LO:SIC:s=4G)	!	!	!	!	!	!	!	!	!	!	!	!	!	!	!	!	!	!	!	!	!	!	!	!	!	!	!	!	!	!	!	!	!	!	!	!	!	!	!	!	!
4G\	.	.	4G\	.	4G/)	.	.	.	.	.	.	.	.	.	.	.	.	.	.	.	.	.	.	.	.	.	.	.	.	4G\)	.	4G\)	.	.	.	.	.	.	.	.	.	.	.	.
.	8cc#X\	.	.	.	.	.	8a/	.	8ee\	.	.	.	.	.	.	.	.	.	.	.	.	.	.	.	.	.	.	.	.	.	.	.	.	.	.	.	.	.	.	.	.	.	.	.
=29	=29	=29	=29	=29	=29	=29	=29	=29	=29	=29	=29	=29	=29	=29	=29	=29	=29	=29	=29	=29	=29	=29	=29	=29	=29	=29	=29	=29	=29	=29	=29	=29	=29	=29	=29	=29	=29	=29	=29	=29	=29	=29	=29	=29
*	*	*	*	*	*2\right	*	*	*	*	*	*	*	*	*	*	*	*	*	*	*	*	*	*	*	*	*	*	*	*	*	*	*	*	*	*	*	*	*	*	*	*	*	*	*
!LO:SIC:s=4F	!	!	!LO:SIC:s=4F	!	!	!	!	!	!	!	!	!	!	!	!	!	!	!	!	!	!	!	!	!	!	!	!	!	!	!	!	!	!	!	!	!	!	!	!	!	!	!	!	!
4Fn\	2dd\	.	4Fn\)	.	2f\	.	[2.a/	.	8dd\	.	.	.	.	.	.	.	.	.	2.r	0.r	.	0.r	.	0.r	.	2.r	.	2.r	.	2F\	.	2F\	.	2.r	.	2.r	.	2.r	.	2.r	.	2.r	.	2.ryy
.	.	.	.	.	.	.	.	.	4dd\	.	.	.	.	.	.	.	.	.	.	.	.	.	.	.	.	.	.	.	.	.	.	.	.	.	.	.	.	.	.	.	.	.	.	.
4r	.	.	4r	.	.	.	.	.	.	.	.	.	.	.	.	.	.	.	.	.	.	.	.	.	.	.	.	.	.	.	.	.	.	.	.	.	.	.	.	.	.	.	.	.
.	.	.	.	.	.	.	.	.	4dd\	.	.	.	.	.	.	.	.	.	.	.	.	.	.	.	.	.	.	.	.	.	.	.	.	.	.	.	.	.	.	.	.	.	.	.
4E\	4ccn\	.	4E\	.	4e\	.	.	.	.	.	.	.	.	.	.	.	.	.	.	.	.	.	.	.	.	.	.	.	.	4E\	.	4E\	.	.	.	.	.	.	.	.	.	.	.	.
!	!	!	!	!	!	!	!	!	!LO:SIC:s=8cc	!	!	!	!	!	!	!	!	!	!	!	!	!	!	!	!	!	!	!	!	!	!	!	!	!	!	!	!	!	!	!	!	!	!	!
.	.	.	.	.	.	.	.	.	8ccn\	.	.	.	.	.	.	.	.	.	.	.	.	.	.	.	.	.	.	.	.	.	.	.	.	.	.	.	.	.	.	.	.	.	.	.
=30	=30	=30	=30	=30	=30	=30	=30	=30	=30	=30	=30	=30	=30	=30	=30	=30	=30	=30	=30	=30	=30	=30	=30	=30	=30	=30	=30	=30	=30	=30	=30	=30	=30	=30	=30	=30	=30	=30	=30	=30	=30	=30	=30	=30
4D\	2bn\	.	4D\	.	2f\ 2d\	.	2a/]	.	8bn\	.	.	.	2.r	.	.	.	2.r	.	2.r	.	.	.	.	.	.	2.r	.	2.r	.	2D\	.	2D\	.	2.r	.	2.r	.	2.r	.	2.r	.	2.r	.	2.ryy
.	.	.	.	.	.	.	.	.	4b\	.	.	.	.	.	.	.	.	.	.	.	.	.	.	.	.	.	.	.	.	.	.	.	.	.	.	.	.	.	.	.	.	.	.	.
4r	.	.	4r	.	.	.	.	.	.	.	.	.	.	.	.	.	.	.	.	.	.	.	.	.	.	.	.	.	.	.	.	.	.	.	.	.	.	.	.	.	.	.	.	.
.	.	.	.	.	.	.	.	.	4b\	.	.	.	.	.	.	.	.	.	.	.	.	.	.	.	.	.	.	.	.	.	.	.	.	.	.	.	.	.	.	.	.	.	.	.
4E\	4ee\	.	4E\	.	4e\	.	4g#X/	.	.	.	.	.	.	.	.	.	.	.	.	.	.	.	.	.	.	.	.	.	.	4E\	.	4E\	.	.	.	.	.	.	.	.	.	.	.	.
.	.	.	.	.	.	.	.	.	8b\	.	.	.	.	.	.	.	.	.	.	.	.	.	.	.	.	.	.	.	.	.	.	.	.	.	.	.	.	.	.	.	.	.	.	.
=31	=31	=31	=31	=31	=31	=31	=31	=31	=31	=31	=31	=31	=31	=31	=31	=31	=31	=31	=31	=31	=31	=31	=31	=31	=31	=31	=31	=31	=31	=31	=31	=31	=31	=31	=31	=31	=31	=31	=31	=31	=31	=31	=31	=31
!	!	!	!	!	!	!	!LO:PB:g=original	!	!	!	!	!	!	!	!	!	!	!	!LO:PB:g=original	!	!	!	!	!	!	!	!	!	!	!	!	!	!	!	!	!	!	!	!	!	!	!	!	!
*^	*	*	*^	*	*	*	*	*	*	*	*	*	*	*	*	*	*	*	*	*	*	*	*	*	*	*	*	*	*	*	*	*	*	*	*	*	*	*	*	*	*	*	*	*
!	!LO:MO:mod=2.rAA	!	!	!	!	!	!	!	!	!	!	!	!	!	!	!	!	!	!	!	!	!	!	!	!	!	!	!	!	!	!	!	!	!	!	!	!	!	!	!	!	!	!	!	!	!
8A/	2.r	2a/	.	8A/	2AA\	.	8A/	.	8r	.	8r	.	.	.	4r	.	.	.	2.a\	A-	2.r	.	.	.	.	.	.	2.r	.	2.r	.	2AA/	.	2AA/	.	2.r	.	2.r	.	2.r	.	2.r	.	2.r	.	2.ryy
8r	.	.	.	8r	.	.	8r	.	8c/	.	8a/	.	.	.	.	.	.	.	.	.	.	.	.	.	.	.	.	.	.	.	.	.	.	.	.	.	.	.	.	.	.	.	.	.	.	.
8A/	.	.	.	8A/	.	.	8A/	.	8r	.	8r	.	.	.	[2A\	A-	.	.	.	.	.	.	.	.	.	.	.	.	.	.	.	.	.	.	.	.	.	.	.	.	.	.	.	.	.	.
8r	.	.	.	8r	.	.	8r	.	8c/	.	8a/	.	.	.	.	.	.	.	.	.	.	.	.	.	.	.	.	.	.	.	.	.	.	.	.	.	.	.	.	.	.	.	.	.	.	.
!	!	!	!	!	!LO:SIC:s=4rFF	!	!	!	!	!	!	!	!	!	!	!	!	!	!	!	!	!	!	!	!	!	!	!	!	!	!	!	!	!	!	!	!	!	!	!	!	!	!	!	!	!
8A/	.	4r	.	8A/	4r	.	8A/	.	8r	.	8r	.	.	.	.	.	.	.	.	.	.	.	.	.	.	.	.	.	.	.	.	4r	.	4r	.	.	.	.	.	.	.	.	.	.	.	.
8r	.	.	.	8r	.	.	8r	.	8c/	.	8a/	.	.	.	.	.	.	.	.	.	.	.	.	.	.	.	.	.	.	.	.	.	.	.	.	.	.	.	.	.	.	.	.	.	.	.
*	*	*	*	*	*	*	*	*	*custos	*	*	*	*	*	*	*	*	*	*	*	*	*	*	*	*	*	*	*	*	*	*	*	*	*	*	*	*	*	*	*	*	*	*	*	*	*
=32	=32	=32	=32	=32	=32	=32	=32	=32	=32	=32	=32	=32	=32	=32	=32	=32	=32	=32	=32	=32	=32	=32	=32	=32	=32	=32	=32	=32	=32	=32	=32	=32	=32	=32	=32	=32	=32	=32	=32	=32	=32	=32	=32	=32	=32	=32
!LO:PB:g=original	!	!	!	!	!	!	!	!	!	!	!	!	!	!	!	!	!	!	!	!	!	!	!	!	!	!	!	!	!	!	!	!	!	!	!	!	!	!	!	!	!	!	!	!	!	!
!	!LO:MO:mod=2.rAA	!	!	!	!LO:SIC:s=2.rAA	!	!	!	!	!	!	!	!	!	!	!	!	!	!	!	!	!	!	!	!	!	!	!	!	!	!	!LO:TX:a:t=4.:mod=	!	!LO:TX:a:t=4.:mod=	!	!	!	!	!	!	!	!	!	!	!	!
8A/	2.r	2.r	.	8A/	2.r	.	8A/	.	8r	.	8r	.	2.r	.	4A/]	.	2.r	.	2.bn\	-gnus	2.r	.	.	.	.	.	.	2.r	.	2.r	.	0.r	.	0.r	.	2.r	.	2.r	.	2.r	.	2.r	.	2.r	.	2.ryy
8r	.	.	.	8r	.	.	8r	.	8d/	.	8bn/	.	.	.	.	.	.	.	.	.	.	.	.	.	.	.	.	.	.	.	.	.	.	.	.	.	.	.	.	.	.	.	.	.	.	.
8G/	.	.	.	8G/	.	.	8G/	.	8r	.	8r	.	.	.	4G/	.	.	.	.	.	.	.	.	.	.	.	.	.	.	.	.	.	.	.	.	.	.	.	.	.	.	.	.	.	.	.
8r	.	.	.	8r	.	.	8r	.	8d/	.	8b/	.	.	.	.	.	.	.	.	.	.	.	.	.	.	.	.	.	.	.	.	.	.	.	.	.	.	.	.	.	.	.	.	.	.	.
8F/	.	.	.	8F/	.	.	8F/	.	8r	.	8r	.	.	.	4F/	-gnus	.	.	.	.	.	.	.	.	.	.	.	.	.	.	.	.	.	.	.	.	.	.	.	.	.	.	.	.	.	.
8r	.	.	.	8r	.	.	8r	.	8d/	.	8b/	.	.	.	.	.	.	.	.	.	.	.	.	.	.	.	.	.	.	.	.	.	.	.	.	.	.	.	.	.	.	.	.	.	.	.
*	*	*	*	*	*	*	*	*	*	*	*custos	*	*	*	*	*	*	*	*	*	*	*	*	*	*	*	*	*	*	*	*	*	*	*	*	*	*	*	*	*	*	*	*	*	*	*
*v	*v	*	*	*v	*v	*	*	*	*	*	*	*	*	*	*	*	*	*	*	*	*	*	*	*	*	*	*	*	*	*	*	*	*	*	*	*	*	*	*	*	*	*	*	*	*	*
=33	=33	=33	=33	=33	=33	=33	=33	=33	=33	=33	=33	=33	=33	=33	=33	=33	=33	=33	=33	=33	=33	=33	=33	=33	=33	=33	=33	=33	=33	=33	=33	=33	=33	=33	=33	=33	=33	=33	=33	=33	=33	=33	=33	=33
!	!	!	!LO:PB:g=original	!	!	!	!	!	!LO:PB:g=original	!	!	!	!LO:PB:g=original	!	!	!	!	!	!	!	!	!	!	!	!	!	!	!	!	!	!	!	!	!	!	!	!	!	!	!	!	!	!	!
8C/	2.r	.	8C/	.	8c\	.	8r	.	8r	.	4r	.	2.E/	A-	2.g\	A-	2cc\	De-	2.r	0.r	.	1.r	.	1.r	.	2.r	.	2.r	.	.	.	.	.	2.r	.	2.r	.	2.r	.	2.r	.	2.r	.	2.ryy
8r	.	.	8r	.	8r	.	8e/	.	8cc\	.	.	.	.	.	.	.	.	.	.	.	.	.	.	.	.	.	.	.	.	.	.	.	.	.	.	.	.	.	.	.	.	.	.	.
8C/	.	.	8C/	.	8c\	.	8r	.	8r	.	[2C/	A-	.	.	.	.	.	.	.	.	.	.	.	.	.	.	.	.	.	.	.	.	.	.	.	.	.	.	.	.	.	.	.	.
8r	.	.	8r	.	8r	.	8e/	.	8cc\	.	.	.	.	.	.	.	.	.	.	.	.	.	.	.	.	.	.	.	.	.	.	.	.	.	.	.	.	.	.	.	.	.	.	.
8C/	.	.	8C/	.	8c\	.	8r	.	8r	.	.	.	.	.	.	.	8bn\L	.	.	.	.	.	.	.	.	.	.	.	.	.	.	.	.	.	.	.	.	.	.	.	.	.	.	.
8r	.	.	8r	.	8r	.	8e/	.	8cc\	.	.	.	.	.	.	.	8cc\J	.	.	.	.	.	.	.	.	.	.	.	.	.	.	.	.	.	.	.	.	.	.	.	.	.	.	.
*	*	*	*	*	*	*	*	*	*	*	*	*	*	*	*custos	*	*	*	*	*	*	*	*	*	*	*	*	*	*	*	*	*	*	*	*	*	*	*	*	*	*	*	*	*
=34	=34	=34	=34	=34	=34	=34	=34	=34	=34	=34	=34	=34	=34	=34	=34	=34	=34	=34	=34	=34	=34	=34	=34	=34	=34	=34	=34	=34	=34	=34	=34	=34	=34	=34	=34	=34	=34	=34	=34	=34	=34	=34	=34	=34
!	!	!	!	!	!	!	!	!	!	!	!	!	!	!	!LO:PB:g=original	!	!	!	!	!	!	!	!	!	!	!	!	!	!	!	!	!	!	!	!	!	!	!	!	!	!	!	!	!
8C/	2.r	.	8C/	.	8c\	.	8r	.	8r	.	4C/]	.	4F/	.	4a\	.	4a\	-i	2.r	.	.	.	.	.	.	2.r	.	2.r	.	.	.	.	.	2.r	.	2.r	.	2.r	.	2.r	.	2.r	.	2.ryy
8r	.	.	8r	.	8r	.	8f/	.	8a/	.	.	.	.	.	.	.	.	.	.	.	.	.	.	.	.	.	.	.	.	.	.	.	.	.	.	.	.	.	.	.	.	.	.	.
8BB-X/	.	.	8BB-/	.	8B-X\	.	8r	.	8r	.	4BB-X/	.	4E/	.	4g\	.	4cc\	A-	.	.	.	.	.	.	.	.	.	.	.	.	.	.	.	.	.	.	.	.	.	.	.	.	.	.
8r	.	.	8r	.	8r	.	8e/	.	8cc/ 8g/	.	.	.	.	.	.	.	.	.	.	.	.	.	.	.	.	.	.	.	.	.	.	.	.	.	.	.	.	.	.	.	.	.	.	.
8AA/	.	.	8AA/	.	8A/	.	8r	.	8r	.	4AA/	-gnus	4F/	-gnus	4cc\	-gnus	4ff\	-gnus	.	.	.	.	.	.	.	.	.	.	.	.	.	.	.	.	.	.	.	.	.	.	.	.	.	.
8r	.	.	8r	.	8r	.	8cc\	.	8ff\	.	.	.	.	.	.	.	.	.	.	.	.	.	.	.	.	.	.	.	.	.	.	.	.	.	.	.	.	.	.	.	.	.	.	.
*	*	*	*	*	*custos	*	*	*	*	*	*	*	*	*	*	*	*	*	*	*	*	*	*	*	*	*	*	*	*	*	*	*	*	*	*	*	*	*	*	*	*	*	*	*
=35	=35	=35	=35	=35	=35	=35	=35	=35	=35	=35	=35	=35	=35	=35	=35	=35	=35	=35	=35	=35	=35	=35	=35	=35	=35	=35	=35	=35	=35	=35	=35	=35	=35	=35	=35	=35	=35	=35	=35	=35	=35	=35	=35	=35
!	!	!	!	!	!LO:PB:g=original	!	!	!	!	!	!	!	!	!	!	!	!	!	!	!	!	!	!	!	!	!	!	!	!	!	!	!	!	!	!	!	!	!	!	!	!	!	!	!
8GG/	2.r	.	8GG/	.	8G/	.	8r	.	8r	.	2.GG/	De-	2.G/	De-	2cc\	De-	2ee\	De-	2.r	.	.	2.r	.	2.r	.	2.r	.	2.r	.	.	.	.	.	2.r	.	2.r	.	2.r	.	2.r	.	2.r	.	2.ryy
8r	.	.	8r	.	8r	.	8cc\	.	8ee\	.	.	.	.	.	.	.	.	.	.	.	.	.	.	.	.	.	.	.	.	.	.	.	.	.	.	.	.	.	.	.	.	.	.	.
8GG/	.	.	8GG/	.	8G/	.	8r	.	8r	.	.	.	.	.	.	.	.	.	.	.	.	.	.	.	.	.	.	.	.	.	.	.	.	.	.	.	.	.	.	.	.	.	.	.
8r	.	.	8r	.	8r	.	8cc\	.	8ee\	.	.	.	.	.	.	.	.	.	.	.	.	.	.	.	.	.	.	.	.	.	.	.	.	.	.	.	.	.	.	.	.	.	.	.
8GG/	.	.	8GG/	.	8G/	.	8r	.	8r	.	.	.	.	.	8.f\L	.	8.bn\L	.	.	.	.	.	.	.	.	.	.	.	.	.	.	.	.	.	.	.	.	.	.	.	.	.	.	.
8r	.	.	8r	.	8r	.	8f/ 8G/	.	8bn\	.	.	.	.	.	.	.	.	.	.	.	.	.	.	.	.	.	.	.	.	.	.	.	.	.	.	.	.	.	.	.	.	.	.	.
.	.	.	.	.	.	.	.	.	.	.	.	.	.	.	16e\Jk	.	16cc\Jk	.	.	.	.	.	.	.	.	.	.	.	.	.	.	.	.	.	.	.	.	.	.	.	.	.	.	.
=36	=36	=36	=36	=36	=36	=36	=36	=36	=36	=36	=36	=36	=36	=36	=36	=36	=36	=36	=36	=36	=36	=36	=36	=36	=36	=36	=36	=36	=36	=36	=36	=36	=36	=36	=36	=36	=36	=36	=36	=36	=36	=36	=36	=36
!	!	!	!	!	!	!	!LO:PB:g=original	!	!	!	!	!	!	!	!	!	!	!	!	!	!	!	!	!	!	!	!	!	!	!	!	!	!	!	!	!	!	!	!	!	!	!	!	!
2C/	8r	.	2C/	.	2c\	.	2e/ 2G/	.	2cc\	.	2C/	-i	2G/	-i	2e\	-i	2cc\	-i	2.r	.	.	8r	.	8r	.	8r	.	8r	.	8r	.	8r	.	8r	.	8r	.	8r	.	8r	.	8r	.	2.ryy
!	!	!LO:MO:mod=!LO&colon;HP&colon;ed=brack	!	!	!	!	!	!	!	!	!	!	!	!	!	!	!	!	!	!	!	!	!	!	!	!	!	!	!	!	!	!	!	!	!	!	!	!	!	!	!	!	!	!
!	!	!null	!	!	!	!	!	!	!	!	!	!	!	!	!	!	!	!	!	!	!	!	!	!	!	!	!	!	!	!	!	!	!	!	!	!	!	!	!	!	!	!	!	!
!	!	!LO:MO:null:mod=<	!	!	!	!	!	!	!	!	!	!	!	!	!	!	!	!	!	!	!	!	!	!	!	!	!	!	!	!	!	!	!	!	!	!	!	!	!	!	!	!	!	!
.	4cc/ 4c/	.	.	.	.	.	.	.	.	.	.	.	.	.	.	.	.	.	.	.	.	4cc\	<	4cc\	<	4c/	<	4c/	<	4C/	<	4C/	<	4cc\	<	4cc\	<	4cc\	<	4ccc\	<	4ccc\	<	.
.	4cc/ 4c/	.	.	.	.	.	.	.	.	.	.	.	.	.	.	.	.	.	.	.	.	4cc\	.	4cc\	.	4c/	.	4c/	.	4C/	.	4C/	.	4cc\	.	4cc\	.	4cc\	.	4ccc\	.	4ccc\	.	.
4r	.	.	4r	.	4r	.	4r	.	4r	.	4C/	qui	4c\	qui	4c\	qui	4cc\	qui	.	.	.	.	.	.	.	.	.	.	.	.	.	.	.	.	.	.	.	.	.	.	.	.	.	.
!	!	!LO:MO:null:mod=[[	!	!	!	!	!	!	!	!	!	!	!	!	!	!	!	!	!	!	!	!	!LO:MO:mod=[[	!	!LO:MO:mod=[[	!	!LO:MO:mod=[[	!	!LO:MO:mod=[[	!	!LO:MO:mod=[[	!	!LO:MO:mod=[[	!	!LO:MO:mod=[[	!	!LO:MO:mod=[[	!	!LO:MO:mod=[[	!	!LO:MO:mod=[[	!	!LO:MO:mod=[[	!
.	8cc/ 8c/	.	.	.	.	.	.	.	.	.	.	.	.	.	.	.	.	.	.	.	.	8cc\	[	8cc\	[	8c/	[	8c/	[	8C/	[	8C/	[	8cc\	[	8cc\	[	8cc\	[	8ccc\	[	8ccc\	[	.
=37	=37	=37	=37	=37	=37	=37	=37	=37	=37	=37	=37	=37	=37	=37	=37	=37	=37	=37	=37	=37	=37	=37	=37	=37	=37	=37	=37	=37	=37	=37	=37	=37	=37	=37	=37	=37	=37	=37	=37	=37	=37	=37	=37	=37
!LO:PB:g=original	!	!	!LO:PB:g=original	!	!	!	!	!	!	!	!	!	!	!	!	!	!LO:LB:g=original	!	!	!	!	!	!	!	!	!	!	!	!	!LO:PB:g=original	!	!LO:PB:g=original	!	!	!	!	!	!	!	!	!	!LO:PB:g=original	!	!
!	!	!	!	!	!	!	!	!	!	!	!LO:SIC:s=8.FL	!	!	!	!	!	!	!	!	!	!	!	!	!	!	!	!	!	!	!	!LO:MO:null:mod=ff	!	!	!	!	!	!	!	!	!	!	!	!	!
8.F\L	4aa\ 4ff\ 4cc\	f	8.F\L	ff	8.F/L	ff	8.ff\L 8.cc\	ff	8.aa\L 8.cc\	ff	(8.F\L	tol-	4f\	tol-	4a\	tol-	4cc\	tol-	4F/	8.F\L	f	4cc\	ff	4cc\	ff	4f\	ff	4f\	ff	4F\	.	4F\	ff	4ff\	ff	4aa\	ff	4ff\	ff	4aa\	ff	4ccc\	ff	2.ryy
!	!	!	!	!	!	!	!	!	!	!	!LO:SIC:s=16AJk	!	!	!	!	!	!	!	!	!	!	!	!	!	!	!	!	!	!	!	!LO:MO:mod=.	!	!	!	!	!	!	!	!	!	!	!	!	!
16A\Jk	.	.	16A\Jk	.	16A/Jk	.	16ff\Jk 16cc\	.	16aa\Jk 16cc\	.	16A\Jk)	.	.	.	.	.	.	.	.	16A\Jk	.	.	.	.	.	.	.	.	.	.	ff	.	.	.	.	.	.	.	.	.	.	.	.	.
4c\	4gg\ 4ee\ 4cc\	.	4c\	.	4c/	.	4ee\ 4cc\	.	4gg\ 4cc\	.	4c\	-lis	4e\	-lis	4g\	-lis	4cc\	-lis	4C/	4c\	.	4cc\	.	4cc\	.	4c/	.	4c/	.	4C/	.	4C/	.	4ee\	.	4gg\	.	4ee\	.	4gg\	.	4ccc\	.	.
4r	4r	.	4r	.	4r	.	4r	.	4r	.	4C/	qui	4G/	qui	4e\	qui	4cc\	qui	4r	4r	.	4r	.	4r	.	4r	.	4r	.	4r	.	4r	.	4r	.	4r	.	4r	.	4r	.	4r	.	.
*	*	*	*	*	*	*	*	*	*	*	*	*	*	*	*	*	*	*	*	*	*	*	*	*	*	*	*	*	*	*	*	*	*	*	*	*	*	*	*	*custos	*	*	*	*
=38	=38	=38	=38	=38	=38	=38	=38	=38	=38	=38	=38	=38	=38	=38	=38	=38	=38	=38	=38	=38	=38	=38	=38	=38	=38	=38	=38	=38	=38	=38	=38	=38	=38	=38	=38	=38	=38	=38	=38	=38	=38	=38	=38	=38
!	!	!	!	!	!	!	!	!	!	!	!LO:PB:g=original	!	!	!	!	!	!	!	!	!	!	!	!	!	!	!	!	!	!	!	!	!	!	!	!	!LO:PB:g=original	!	!	!	!LO:LB:g=original	!	!	!	!
!	!	!	!	!	!	!	!	!	!	!	!	!	!	!	!	!	!	!	!LO:TX:a:t=22.:mod=	!LO:TX:a:t=3.:mod=	!	!LO:TX:a:t=3.:mod=	!	!LO:TX:a:t=3.:mod=	!	!LO:TX:a:t=3.:mod=	!	!LO:TX:a:t=3.:mod=	!	!LO:TX:a:t=3.:mod=	!	!LO:TX:a:t=3.:mod=	!	!LO:TX:a:t=3.:mod=	!	!LO:TX:a:t=3.:mod=	!	!LO:TX:a:t=3.:mod=	!	!LO:TX:a:t=3.:mod=	!	!LO:TX:a:t=3.:mod=	!	!
4r	2.r	.	4r	.	4r	.	4r	.	4r	.	4D/	tol-	4G/	tol-	8.g\L	tol-	4bn\	tol-	2.r	1.r	.	1.r	.	1.r	.	1.r	.	1.r	.	1.r	.	1.r	.	1.r	.	1.r	.	1.r	.	1.r	.	1.r	.	2.ryy
.	.	.	.	.	.	.	.	.	.	.	.	.	.	.	16f\Jk	.	.	.	.	.	.	.	.	.	.	.	.	.	.	.	.	.	.	.	.	.	.	.	.	.	.	.	.	.
4r	.	.	4r	.	4r	.	4r	.	4r	.	4C/	-lis	4G/	-lis	4e\	-lis	4cc\	-lis	.	.	.	.	.	.	.	.	.	.	.	.	.	.	.	.	.	.	.	.	.	.	.	.	.	.
!	!	!LO:DY:b=2	!	!	!LO:MO:mod=8B	!LO:MO:null:mod=p	!	!	!	!	!	!	!	!	!	!	!	!	!	!	!	!	!	!	!	!	!	!	!	!	!	!	!	!	!	!	!	!	!	!	!	!	!	!
8BBn/	.	p	8BBn/	p	8r	.	8r	.	8r	.	4BBn/	pec-	4G/	pec-	4d\	pec-	4g\	pec-	.	.	.	.	.	.	.	.	.	.	.	.	.	.	.	.	.	.	.	.	.	.	.	.	.	.
!	!	!	!	!	!LO:MO:mod=8r	!LO:MO:mod=.	!	!	!	!	!	!	!	!	!	!	!	!	!	!	!	!	!	!	!	!	!	!	!	!	!	!	!	!	!	!	!	!	!	!	!	!	!	!
8r	.	.	8r	.	8Bn/	p	8g/	p	8dd\	p	.	.	.	.	.	.	.	.	.	.	.	.	.	.	.	.	.	.	.	.	.	.	.	.	.	.	.	.	.	.	.	.	.	.
*	*	*	*	*	*	*	*	*	*	*	*	*	*custos	*	*	*	*	*	*	*	*	*	*	*	*	*	*	*	*	*	*	*	*	*	*	*	*	*	*	*	*	*	*	*
=39	=39	=39	=39	=39	=39	=39	=39	=39	=39	=39	=39	=39	=39	=39	=39	=39	=39	=39	=39	=39	=39	=39	=39	=39	=39	=39	=39	=39	=39	=39	=39	=39	=39	=39	=39	=39	=39	=39	=39	=39	=39	=39	=39	=39
!	!	!	!	!	!	!	!	!	!LO:PB:g=original	!	!	!	!LO:LB:g=original	!	!	!	!	!	!	!	!	!	!	!	!	!	!	!	!	!	!	!	!	!	!	!	!	!	!	!	!	!	!	!
8C/	2.r	.	8C/	.	8c/	.	8r	.	8r	.	2C/	-ca-	(4G/	-ca-	(4e\	-ca-	(4g\	-ca-	2.r	.	.	.	.	.	.	.	.	.	.	.	.	.	.	.	.	.	.	.	.	.	.	.	.	2.ryy
8r	.	.	8r	.	8r	.	8g/	.	8ee\	.	.	.	.	.	.	.	.	.	.	.	.	.	.	.	.	.	.	.	.	.	.	.	.	.	.	.	.	.	.	.	.	.	.	.
8C/	.	.	8C/	.	8c/	.	8r	.	8r	.	.	.	4d\)	.	4f#X\)	.	4a\)	.	.	.	.	.	.	.	.	.	.	.	.	.	.	.	.	.	.	.	.	.	.	.	.	.	.	.
8r	.	.	8r	.	8r	.	8a/	.	8ff#X\	.	.	.	.	.	.	.	.	.	.	.	.	.	.	.	.	.	.	.	.	.	.	.	.	.	.	.	.	.	.	.	.	.	.	.
8BBn/	.	.	8BBn/	.	8Bn/	.	8r	.	8r	.	4BBn/	-ta	4d\	-ta	4g\	-ta	4g\	-ta	.	.	.	.	.	.	.	.	.	.	.	.	.	.	.	.	.	.	.	.	.	.	.	.	.	.
8r	.	.	8r	.	8r	.	8dd\	.	8gg\	.	.	.	.	.	.	.	.	.	.	.	.	.	.	.	.	.	.	.	.	.	.	.	.	.	.	.	.	.	.	.	.	.	.	.
=40	=40	=40	=40	=40	=40	=40	=40	=40	=40	=40	=40	=40	=40	=40	=40	=40	=40	=40	=40	=40	=40	=40	=40	=40	=40	=40	=40	=40	=40	=40	=40	=40	=40	=40	=40	=40	=40	=40	=40	=40	=40	=40	=40	=40
!	!	!	!	!	!LO:PB:g=original	!	!	!	!	!	!	!	!	!	!LO:PB:g=original	!	!	!	!	!	!	!	!	!	!	!	!	!	!	!	!	!	!	!	!	!	!	!	!	!	!	!	!	!
!	!	!	!	!	!	!	!	!	!	!	!	!	!	!	!LO:SIC:s=(4g	!	!LO:SIC:s=[2cc	!	!	!	!	!	!	!	!	!	!	!	!	!	!	!	!	!	!	!	!	!	!	!	!	!	!	!
8AA/	2.r	.	8AA/	.	8A/	.	8r	.	8r	.	[2AA/	mun-	[2c\	mun-	4g\	mun-	2cc\	mun-	2.r	2.r	.	2.r	.	2.r	.	2.r	.	2.r	.	2.r	.	2.r	.	2.r	.	2.r	.	2.r	.	2.r	.	2.r	.	2.ryy
8r	.	.	8r	.	8r	.	8cc\	.	8gg\	.	.	.	.	.	.	.	.	.	.	.	.	.	.	.	.	.	.	.	.	.	.	.	.	.	.	.	.	.	.	.	.	.	.	.
!	!	!	!	!	!	!	!	!	!	!	!	!	!	!	!LO:SIC:s=4e)	!	!	!	!	!	!	!	!	!	!	!	!	!	!	!	!	!	!	!	!	!	!	!	!	!	!	!	!	!
8AA/	.	.	8AA/	.	8A/	.	8r	.	8r	.	.	.	.	.	4e\	.	.	.	.	.	.	.	.	.	.	.	.	.	.	.	.	.	.	.	.	.	.	.	.	.	.	.	.	.
8r	.	.	8r	.	8r	.	8cc\	.	8gg\	.	.	.	.	.	.	.	.	.	.	.	.	.	.	.	.	.	.	.	.	.	.	.	.	.	.	.	.	.	.	.	.	.	.	.
!	!	!	!	!	!	!	!	!	!	!	!	!	!	!	!	!	!LO:SIC:s=8.ccL]	!	!	!	!	!	!	!	!	!	!	!	!	!	!	!	!	!	!	!	!	!	!	!	!	!	!	!
8AA/	.	.	8AA/	.	8A/	.	8r	.	8r	.	8.AA/L]	.	8.c\L]	.	8.f#X\L	.	8.cc\L	.	.	.	.	.	.	.	.	.	.	.	.	.	.	.	.	.	.	.	.	.	.	.	.	.	.	.
8r	.	.	8r	.	8r	.	8cc\	.	8ff#X\	.	.	.	.	.	.	.	.	.	.	.	.	.	.	.	.	.	.	.	.	.	.	.	.	.	.	.	.	.	.	.	.	.	.	.
.	.	.	.	.	.	.	.	.	.	.	16GG/Jk	.	16d\Jk	.	16g\Jk	.	16bn\Jk	.	.	.	.	.	.	.	.	.	.	.	.	.	.	.	.	.	.	.	.	.	.	.	.	.	.	.
=41	=41	=41	=41	=41	=41	=41	=41	=41	=41	=41	=41	=41	=41	=41	=41	=41	=41	=41	=41	=41	=41	=41	=41	=41	=41	=41	=41	=41	=41	=41	=41	=41	=41	=41	=41	=41	=41	=41	=41	=41	=41	=41	=41	=41
!	!	!	!LO:PB:g=original	!	!	!	!LO:PB:g=original	!	!	!	!	!	!	!	!	!	!	!	!	!	!	!	!	!	!	!LO:PB:g=original	!	!LO:PB:g=original	!	!	!	!	!	!	!	!	!	!LO:PB:g=original	!	!	!	!	!	!
8GG/	4r	.	8GG/	.	8G/	.	8r	.	8r	.	2GG/	-di	2d\	-di	2g\	-di	2bn\	-di	2.r	4r	.	4r	.	4r	.	4r	.	4r	.	4r	.	4r	.	4r	.	4r	.	4r	.	4r	.	4r	.	2.ryy
8r	.	.	8r	.	8r	.	8bn\	.	8gg\	.	.	.	.	.	.	.	.	.	.	.	.	.	.	.	.	.	.	.	.	.	.	.	.	.	.	.	.	.	.	.	.	.	.	.
8G\	4r	.	8G\	.	8g\	.	8r	.	8r	.	.	.	.	.	.	.	.	.	.	4r	.	4r	.	4r	.	4r	.	4r	.	4r	.	4r	.	4r	.	4r	.	4r	.	4r	.	4r	.	.
8r	.	.	8r	.	8r	.	8b\	.	8gg\	.	.	.	.	.	.	.	.	.	.	.	.	.	.	.	.	.	.	.	.	.	.	.	.	.	.	.	.	.	.	.	.	.	.	.
8F\	8.ff\L 8.a-X\	f	8F\	f	8f\	f	8r	.	8r	.	8.F\	mi-	8.c\	mi-	8.a-X\	mi-	8.cc\	mi-	.	4F\	f	8.f/L	f	8.f/L	f	8.f\L	f	8.f\L	f	8.F\L	f	8.A-X\L	f	8.a-X\L	f	8.ff\L	f	8.a-X/L	f	8.ff\L	f	8.ff\L	f	.
8r	.	.	8r	.	8r	.	8cc\	f	8aa-X\	f	.	.	.	.	.	.	.	.	.	.	.	.	.	.	.	.	.	.	.	.	.	.	.	.	.	.	.	.	.	.	.	.	.	.
.	16ff\Jk 16a-\	.	.	.	.	.	.	.	.	.	16F\	-se-	16c\	-se-	16a-\	-se-	16cc\	-se-	.	.	.	16f/Jk	.	16f/Jk	.	16f\Jk	.	16f\Jk	.	16F\Jk	.	16A-\Jk	.	16a-\Jk	.	16ff\Jk	.	16a-/Jk	.	16ff\Jk	.	16ff\Jk	.	.
=42	=42	=42	=42	=42	=42	=42	=42	=42	=42	=42	=42	=42	=42	=42	=42	=42	=42	=42	=42	=42	=42	=42	=42	=42	=42	=42	=42	=42	=42	=42	=42	=42	=42	=42	=42	=42	=42	=42	=42	=42	=42	=42	=42	=42
!LO:PB:g=original	!	!	!	!	!	!	!	!	!	!	!	!	!	!	!	!	!LO:PB:g=original	!	!	!	!	!LO:PB:g=original	!	!	!	!	!	!	!	!	!	!	!	!LO:PB:g=original	!	!	!	!	!	!	!	!	!	!
!	!	!LO:MO:null:mod=p	!	!	!	!	!	!	!	!	!	!	!	!	!	!	!	!	!	!	!	!	!	!	!	!	!	!	!	!	!	!	!	!	!	!	!	!	!	!	!	!	!	!
8F\	4ff\ 4a-X\	.	8F\	p	8f\	.	8r	.	8r	.	4F\	-re-	4c\	-re-	4a-X\	-re-	4cc\	-re-	2.r	4F\	p	4f/	p	4f/	p	4f\	p	4f\	p	4F\	p	4A-X\	p	4a-X\	p	4ff\	p	4a-X/	.	4ff\	p	4ff\	p	2.ryy
!	!	!LO:MO:mod=.	!	!	!	!	!	!	!LO:SIC:v:s=8aa-	!	!	!	!	!	!	!	!	!	!	!	!	!	!	!	!	!	!	!	!	!	!	!	!	!	!	!	!	!	!	!	!	!	!	!
8r	.	p	8r	.	8r	.	8cc\	p	8aa\	p	.	.	.	.	.	.	.	.	.	.	.	.	.	.	.	.	.	.	.	.	.	.	.	.	.	.	.	.	.	.	.	.	.	.
8F\	4r	.	8F\	.	8f\	.	8r	.	8r	.	8F\	-re	8c\	-re	8a-\	-re	8cc\	-re	.	4r	.	4r	.	4r	.	4r	.	4r	.	4r	.	4r	.	4r	.	4r	.	4r	.	4r	.	4r	.	.
!	!	!	!	!	!	!	!	!	!LO:SIC:v:s=8aa-	!	!	!	!	!	!	!	!	!	!	!	!	!	!	!	!	!	!	!	!	!	!	!	!	!	!	!	!	!	!	!	!	!	!	!
8r	.	.	8r	.	8r	.	8cc\	.	8aa\	.	8r	.	8r	.	8r	.	8r	.	.	.	.	.	.	.	.	.	.	.	.	.	.	.	.	.	.	.	.	.	.	.	.	.	.	.
8D\	4r	.	8D\	.	8d\	.	8r	.	8r	.	8.D\	mi-	4r	.	8.a-\	mi-	8.cc\	mi-	.	4r	.	4r	.	4r	.	4r	.	4r	.	4r	.	4r	.	4r	.	4r	.	4r	.	4r	.	4r	.	.
8r	.	.	8r	.	8r	.	8a-X/	.	8ccc\	.	.	.	.	.	.	.	.	.	.	.	.	.	.	.	.	.	.	.	.	.	.	.	.	.	.	.	.	.	.	.	.	.	.	.
.	.	.	.	.	.	.	.	.	.	.	16D\	-se-	.	.	16a-\	-se-	16cc\	-se-	.	.	.	.	.	.	.	.	.	.	.	.	.	.	.	.	.	.	.	.	.	.	.	.	.	.
=43	=43	=43	=43	=43	=43	=43	=43	=43	=43	=43	=43	=43	=43	=43	=43	=43	=43	=43	=43	=43	=43	=43	=43	=43	=43	=43	=43	=43	=43	=43	=43	=43	=43	=43	=43	=43	=43	=43	=43	=43	=43	=43	=43	=43
!	!	!	!	!	!	!	!	!	!	!	!LO:PB:g=original	!	!	!	!	!	!	!	!	!	!	!	!	!	!	!	!	!	!	!	!	!	!	!	!	!	!	!	!	!	!	!	!	!
!	!	!	!	!	!	!	!	!	!	!	!	!	!LO:TX:a:t=2.:mod=	!	!	!	!	!	!	!LO:TX:a:t=5.:mod=	!	!LO:TX:a:t=5.:mod=	!	!LO:TX:a:t=5.:mod=	!	!LO:TX:a:t=4.:mod=	!	!LO:TX:a:t=4.:mod=	!	!LO:TX:a:t=4.:mod=	!	!LO:TX:a:t=4.:mod=	!	!LO:TX:a:t=4.:mod=	!	!LO:TX:a:t=2.:mod=	!	!LO:TX:a:t=4.:mod=	!	!LO:TX:a:t=2.:mod=	!	!LO:TX:a:t=4.:mod=	!	!
8E-X\	2.r	.	8E-X\	.	8e-X\	.	8r	.	8r	.	2E-X\	-re-	1.r	.	4a-X\	-re-	4cc\	-re-	2.r	0.r	.	0.r	.	0.r	.	0.r	.	0.r	.	0.r	.	0.r	.	0.r	.	1.r	.	0.r	.	1.r	.	0.r	.	2.ryy
8r	.	.	8r	.	8r	.	8a-X/	.	8ccc\	.	.	.	.	.	.	.	.	.	.	.	.	.	.	.	.	.	.	.	.	.	.	.	.	.	.	.	.	.	.	.	.	.	.	.
8E-\	.	.	8E-\	.	8e-\	.	8r	.	8r	.	.	.	.	.	4f#X\	.	4an\	.	.	.	.	.	.	.	.	.	.	.	.	.	.	.	.	.	.	.	.	.	.	.	.	.	.	.
8r	.	.	8r	.	8r	.	8f#X/	.	8aan\	.	.	.	.	.	.	.	.	.	.	.	.	.	.	.	.	.	.	.	.	.	.	.	.	.	.	.	.	.	.	.	.	.	.	.
8D\	.	.	8D\	.	8d\	.	8r	.	8r	.	4D\	-re	.	.	4fn\	.	[4b-\	.	.	.	.	.	.	.	.	.	.	.	.	.	.	.	.	.	.	.	.	.	.	.	.	.	.	.
8r	.	.	8r	.	8r	.	8fn/	.	8bb-\	.	.	.	.	.	.	.	.	.	.	.	.	.	.	.	.	.	.	.	.	.	.	.	.	.	.	.	.	.	.	.	.	.	.	.
*	*	*	*	*	*custos	*	*	*	*	*	*	*	*	*	*	*	*	*	*	*	*	*	*	*	*	*	*	*	*	*	*	*	*	*	*	*	*	*	*	*	*	*	*	*
=44	=44	=44	=44	=44	=44	=44	=44	=44	=44	=44	=44	=44	=44	=44	=44	=44	=44	=44	=44	=44	=44	=44	=44	=44	=44	=44	=44	=44	=44	=44	=44	=44	=44	=44	=44	=44	=44	=44	=44	=44	=44	=44	=44	=44
!	!	!	!	!	!LO:PB:g=original	!	!	!	!LO:PB:g=original	!	!	!	!	!	!	!	!	!	!	!	!	!	!	!	!	!	!	!	!	!	!	!	!	!	!	!	!	!	!	!	!	!	!	!
8C/	2.r	.	8C/	.	8c\	.	8r	.	8r	.	2C/	mi-	.	.	2.e-X\	.	4b-\]	.	2.r	.	.	.	.	.	.	.	.	.	.	.	.	.	.	.	.	.	.	.	.	.	.	.	.	2.ryy
8r	.	.	8r	.	8r	.	8e-X/	.	8bb-\	.	.	.	.	.	.	.	.	.	.	.	.	.	.	.	.	.	.	.	.	.	.	.	.	.	.	.	.	.	.	.	.	.	.	.
!	!	!	!LO:PB:g=original	!	!	!	!	!	!	!	!	!	!	!	!	!	!	!	!	!	!	!	!	!	!	!	!	!	!	!	!	!	!	!	!	!	!	!	!	!	!	!	!	!
8C/	.	.	8C/	.	8c\	.	8r	.	8r	.	.	.	.	.	.	.	4g\	.	.	.	.	.	.	.	.	.	.	.	.	.	.	.	.	.	.	.	.	.	.	.	.	.	.	.
8r	.	.	8r	.	8r	.	8e-/	.	8gg\	.	.	.	.	.	.	.	.	.	.	.	.	.	.	.	.	.	.	.	.	.	.	.	.	.	.	.	.	.	.	.	.	.	.	.
8C-X/	.	.	8C-X/	.	8c-X\	.	8r	.	8r	.	4C-X/	-se-	.	.	.	.	[4a-X\	.	.	.	.	.	.	.	.	.	.	.	.	.	.	.	.	.	.	.	.	.	.	.	.	.	.	.
8r	.	.	8r	.	8r	.	8e-/	.	8aa-X\	.	.	.	.	.	.	.	.	.	.	.	.	.	.	.	.	.	.	.	.	.	.	.	.	.	.	.	.	.	.	.	.	.	.	.
=45	=45	=45	=45	=45	=45	=45	=45	=45	=45	=45	=45	=45	=45	=45	=45	=45	=45	=45	=45	=45	=45	=45	=45	=45	=45	=45	=45	=45	=45	=45	=45	=45	=45	=45	=45	=45	=45	=45	=45	=45	=45	=45	=45	=45
!LO:SIC:s=8BB-	!	!	!LO:SIC:s=8BB-	!	!	!	!LO:PB:g=original	!	!	!	!	!	!LO:PB:g=original	!	!LO:PB:g=original	!	!	!	!	!	!	!	!	!	!	!	!	!	!	!	!	!	!	!	!	!	!	!	!	!	!	!	!	!
8BB-X/	4r	.	8BB-X/	.	8B-/	.	8r	.	8r	.	2.BB-X/	-re-	4r	.	[2.d\	-re	4a-\]	.	2.r	.	.	.	.	.	.	.	.	.	.	.	.	.	.	.	.	4r	.	.	.	4r	.	.	.	2.ryy
8r	.	.	8r	.	8r	.	8d/	.	8aa-X\	.	.	.	.	.	.	.	.	.	.	.	.	.	.	.	.	.	.	.	.	.	.	.	.	.	.	.	.	.	.	.	.	.	.	.
8BB-/	4r	.	8BB-/	.	8B-/	.	8r	.	8r	.	.	.	4r	.	.	.	4f/	.	.	.	.	.	.	.	.	.	.	.	.	.	.	.	.	.	.	4r	.	.	.	4r	.	.	.	.
8r	.	.	8r	.	8r	.	8d/	.	8ff\	.	.	.	.	.	.	.	.	.	.	.	.	.	.	.	.	.	.	.	.	.	.	.	.	.	.	.	.	.	.	.	.	.	.	.
8BB-/	8.gg\L	.	8BB-/	.	8B-/	.	8r	.	8r	.	.	.	8.G/	mi-	.	.	4g/	-re	.	.	.	.	.	.	.	.	.	.	.	.	.	.	.	.	.	8.gg\L	.	.	.	8.gg\L	.	.	.	.
8r	.	.	8r	.	8r	.	8d/	.	8gg\	.	.	.	.	.	.	.	.	.	.	.	.	.	.	.	.	.	.	.	.	.	.	.	.	.	.	.	.	.	.	.	.	.	.	.
.	16gg\Jk	.	.	.	.	.	.	.	.	.	.	.	16G/	-se-	.	.	.	.	.	.	.	.	.	.	.	.	.	.	.	.	.	.	.	.	.	16gg\Jk	.	.	.	16gg\Jk	.	.	.	.
=46	=46	=46	=46	=46	=46	=46	=46	=46	=46	=46	=46	=46	=46	=46	=46	=46	=46	=46	=46	=46	=46	=46	=46	=46	=46	=46	=46	=46	=46	=46	=46	=46	=46	=46	=46	=46	=46	=46	=46	=46	=46	=46	=46	=46
!LO:PB:g=original	!	!	!	!	!	!	!	!	!	!	!	!	!	!	!	!	!	!	!	!	!	!	!	!	!	!	!	!	!	!	!	!	!	!	!	!	!	!	!	!	!	!	!	!
8AA/	4aa\	.	8AA/	.	8A/	.	8r	.	8r	.	2.AA/	-re	2A/	-re-	2.d\_	no-	2.f#X/	no-	2.r	.	.	.	.	.	.	.	.	.	.	.	.	.	.	.	.	4aa\	.	.	.	4aa\	.	.	.	2.ryy
8r	.	.	8r	.	8r	.	8d/	.	8ff#X\	.	.	.	.	.	.	.	.	.	.	.	.	.	.	.	.	.	.	.	.	.	.	.	.	.	.	.	.	.	.	.	.	.	.	.
8AA/	4dd\	.	8AA/	.	8A/	.	8r	.	8r	.	.	.	.	.	.	.	.	.	.	.	.	.	.	.	.	.	.	.	.	.	.	.	.	.	.	4dd\	.	.	.	4dd\	.	.	.	.
8r	.	.	8r	.	8r	.	8dd\	.	8ff#\	.	.	.	.	.	.	.	.	.	.	.	.	.	.	.	.	.	.	.	.	.	.	.	.	.	.	.	.	.	.	.	.	.	.	.
8AA/	4ff#X\	.	8AA/	.	8A/	.	8r	.	8r	.	.	.	4A/	-re	.	.	.	.	.	.	.	.	.	.	.	.	.	.	.	.	.	.	.	.	.	4ff#X\	.	.	.	4ff#X\	.	.	.	.
8r	.	.	8r	.	8r	.	8dd\	.	8ff#\	.	.	.	.	.	.	.	.	.	.	.	.	.	.	.	.	.	.	.	.	.	.	.	.	.	.	.	.	.	.	.	.	.	.	.
=47	=47	=47	=47	=47	=47	=47	=47	=47	=47	=47	=47	=47	=47	=47	=47	=47	=47	=47	=47	=47	=47	=47	=47	=47	=47	=47	=47	=47	=47	=47	=47	=47	=47	=47	=47	=47	=47	=47	=47	=47	=47	=47	=47	=47
8AA/	2aa\	.	8AA/	.	8A/	.	8r	.	8r	.	2.AA/	no-	2.A/	no-	4d\]	.	2.en/	.	2.r	2.r	.	2.r	.	2.r	.	4r	.	4r	.	4r	.	4r	.	4r	.	2.aa\	.	4r	.	2.aa\	.	4r	.	2.ryy
8r	.	.	8r	.	8r	.	8dd\	.	8ee\	.	.	.	.	.	.	.	.	.	.	.	.	.	.	.	.	.	.	.	.	.	.	.	.	.	.	.	.	.	.	.	.	.	.	.
8AA/	.	.	8AA/	.	8A/	.	8r	.	8r	.	.	.	.	.	8c#X/L	.	.	.	.	.	.	.	.	.	.	4r	.	4r	.	4r	.	4r	.	4r	.	.	.	4r	.	.	.	4r	.	.
!	!	!	!	!	!	!	!	!	!	!	!	!	!	!	!	!	!	!	!	!	!	!	!	!	!	!	!	!	!	!	!	!	!	!	!LO:MO:mod=.	!	!	!	!	!	!	!	!	!
8r	.	.	8r	.	8r	.	8dd\	.	8ee\	.	.	.	.	.	8Bn/J	.	.	.	.	.	.	.	.	.	.	.	.	.	.	.	.	.	.	.	f	.	.	.	.	.	.	.	.	.
!	!	!	!	!	!	!	!	!	!	!	!	!	!	!	!	!	!	!	!	!	!	!	!	!	!	!	!LO:DY:a	!	!	!	!	!	!	!	!LO:MO:null:mod=f	!	!	!	!	!	!	!	!	!
8AA/	8.aa\L	.	8AA/	.	8A/	.	8r	.	8r	.	.	.	.	.	4c#/	.	.	.	.	.	.	.	.	.	.	8.A/L	f	8.a\L	f	8.A\L	f	8.A\L	f	8.a\L	.	.	.	8.a/L	f	.	.	8.a/L	f	.
8r	.	.	8r	.	8r	.	8cc#X\	.	8ee\	.	.	.	.	.	.	.	.	.	.	.	.	.	.	.	.	.	.	.	.	.	.	.	.	.	.	.	.	.	.	.	.	.	.	.
.	16aa\Jk	.	.	.	.	.	.	.	.	.	.	.	.	.	.	.	.	.	.	.	.	.	.	.	.	16A/Jk	.	16a\Jk	.	16A\Jk	.	16A\Jk	.	16a\Jk	.	.	.	16a/Jk	.	.	.	16a/Jk	.	.
*	*	*	*	*	*	*	*	*	*	*	*	*	*	*	*	*	*	*	*	*custos	*	*	*	*	*	*	*	*	*	*	*	*	*	*	*	*	*	*	*	*	*	*	*	*
=48	=48	=48	=48	=48	=48	=48	=48	=48	=48	=48	=48	=48	=48	=48	=48	=48	=48	=48	=48	=48	=48	=48	=48	=48	=48	=48	=48	=48	=48	=48	=48	=48	=48	=48	=48	=48	=48	=48	=48	=48	=48	=48	=48	=48
!	!	!	!LO:PB:g=original	!	!LO:PB:g=original	!	!	!	!	!	!	!	!	!	!	!	!LO:PB:g=original	!	!	!LO:PB:g=original	!	!	!	!LO:PB:g=original	!	!	!	!	!	!	!	!LO:PB:g=original	!	!	!	!LO:PB:g=original	!	!	!	!LO:PB:g=original	!	!LO:PB:g=original	!	!
*	*	*	*	*	*	*	*	*	*	*	*	*	*	*	*	*	*	*	*	*	*	*	*	*	*	*	*	*	*	*	*	*	*	*2\right	*	*	*	*	*	*	*	*	*	*
!	!	!	!	!	!	!	!	!LO:MO:mod=!LO&colon;DY&colon;ed=brack	!	!LO:MO:mod=!LO&colon;DY&colon;ed=brack	!	!	!	!	!	!	!	!	!	!	!	!	!	!	!	!	!	!	!	!	!	!	!	!	!	!	!	!	!	!	!	!	!	!
!	!	!	!	!	!	!	!	!null	!	!null	!	!	!	!	!	!	!	!	!	!	!	!	!	!	!	!	!	!	!	!	!	!	!	!	!	!	!	!	!	!	!	!	!	!
!	!	!	!	!	!	!	!	!LO:MO:null:mod=ff	!	!LO:MO:null:mod=ff	!	!	!	!	!	!	!	!	!	!	!	!	!	!	!	!	!	!	!	!	!	!	!	!	!	!	!	!	!	!	!	!	!	!
4D\	2aa\ 2ff#X\ 2dd\ 2a\	f	(4D\	ff	(4d\	ff	8dd\	.	8dd\	.	2D/	-bis	2F#X/	-bis	2d\	-bis	2d/	-bis	2.r	4D\	f	2d/	f	2dd\	f	2A/	.	2a\	.	(4D\	.	(4D\	.	2dd\	.	2ff#X\	f	2dd\	.	2ff#X\	f	2a/	.	2.ryy
.	.	.	.	.	.	.	4dd\	.	4ff#X\ 4a\	.	.	.	.	.	.	.	.	.	.	.	.	.	.	.	.	.	.	.	.	.	.	.	.	.	.	.	.	.	.	.	.	.	.	.
!	!	!	!	!	!	!	!	!	!	!	!	!	!	!	!	!	!	!	!	!LO:SIC:s=4F#	!	!	!	!	!	!	!	!	!	!	!	!	!	!	!	!	!	!	!	!	!	!	!	!
4F#X\	.	.	4F#X\	.	4f#X\	.	.	.	.	.	.	.	.	.	.	.	.	.	.	4Fn\	.	.	.	.	.	.	.	.	.	4F#X\	.	4F#X\	.	.	.	.	.	.	.	.	.	.	.	.
.	.	.	.	.	.	.	4dd\	.	4ff#\ 4a\	.	.	.	.	.	.	.	.	.	.	.	.	.	.	.	.	.	.	.	.	.	.	.	.	.	.	.	.	.	.	.	.	.	.	.
4AA/	8.aa\L 8.ff#\ 8.dd\ 8.a\	.	4AA/)	.	4A/)	.	.	.	.	.	4r	.	4r	.	4r	.	4r	.	.	4AA/	.	4r	.	4r	.	8.A/L	.	8.a\L	.	4AA/)	.	4AA/)	.	8.dd\L	.	8.ff#\L	.	8.dd\L	.	8.ff#\L	.	8.a/L	.	.
.	.	.	.	.	.	.	8dd\	.	8ff#\	.	.	.	.	.	.	.	.	.	.	.	.	.	.	.	.	.	.	.	.	.	.	.	.	.	.	.	.	.	.	.	.	.	.	.
.	16aa\Jk 16ff#\ 16dd\ 16a\	.	.	.	.	.	.	.	.	.	.	.	.	.	.	.	.	.	.	.	.	.	.	.	.	16A/Jk	.	16a\Jk	.	.	.	.	.	16dd\Jk	.	16ff#\Jk	.	16dd\Jk	.	16ff#\Jk	.	16a/Jk	.	.
*	*	*	*	*	*	*	*	*	*	*	*	*	*	*	*	*	*	*	*	*	*	*	*	*	*	*	*	*	*	*	*	*	*	*	*	*	*	*custos	*	*	*	*	*	*
=49	=49	=49	=49	=49	=49	=49	=49	=49	=49	=49	=49	=49	=49	=49	=49	=49	=49	=49	=49	=49	=49	=49	=49	=49	=49	=49	=49	=49	=49	=49	=49	=49	=49	=49	=49	=49	=49	=49	=49	=49	=49	=49	=49	=49
!	!	!	!	!	!	!	!LO:PB:g=original	!	!LO:PB:g=original	!	!	!	!	!	!	!	!	!	!	!	!	!	!	!	!	!	!	!	!	!LO:PB:g=original	!	!	!	!	!	!	!	!LO:PB:g=original	!	!	!	!	!	!
!	!	!	!	!	!LO:SIC:s=(4A	!	!	!	!	!	!	!	!	!	!	!	!	!	!	!	!	!LO:TX:a:t=1.:mod=	!	!LO:TX:a:t=1.:mod=	!	!	!	!	!	!	!	!	!	!	!	!	!	!	!	!	!	!	!	!
4AA/	2aa\ 2gg\ 2ee\ 2a\	.	(4AA/	.	4A/	.	8ee\	.	8gg\ 8a\	.	2C#X/	A-	2A\	A-	2e\	A-	2g/	A-	2.r	4AA/	.	2.r	.	2.r	.	2A/	.	2a\	.	(4AA/	.	(4AA/	.	2ee\	.	2gg\	.	2ee\	.	2gg\	.	2a/	.	2.ryy
.	.	.	.	.	.	.	4ee\	.	4gg\ 4a\	.	.	.	.	.	.	.	.	.	.	.	.	.	.	.	.	.	.	.	.	.	.	.	.	.	.	.	.	.	.	.	.	.	.	.
4BBn/	.	.	4BBn/	.	4Bn/	.	.	.	.	.	.	.	.	.	.	.	.	.	.	4BBn/	.	.	.	.	.	.	.	.	.	4BBn/	.	4BBn/	.	.	.	.	.	.	.	.	.	.	.	.
.	.	.	.	.	.	.	4ee\	.	4gg\ 4a\	.	.	.	.	.	.	.	.	.	.	.	.	.	.	.	.	.	.	.	.	.	.	.	.	.	.	.	.	.	.	.	.	.	.	.
!	!LO:SIC:v:s=8.aaL 8.gg 8.ee 8.a	!	!	!	!LO:SIC:s=4c#)	!	!	!	!	!	!	!	!	!	!	!	!	!	!	!	!	!	!	!	!	!	!	!	!	!	!	!	!	!	!	!	!	!	!	!	!	!	!	!
4C#X/	8.aa\L 8.gg-X\ 8.ee\ 8.a\	.	4C#X/)	.	4c#X/	.	.	.	.	.	4C#/	-gnus	4A\	-gnus	4e\	-gnus	4g/	-gnus	.	4C#X/	.	.	.	.	.	8.A/L	.	8.a\L	.	4C#X/)	.	4C#X/)	.	8.ee\L	.	8.gg\L	.	8.ee\L	.	8.gg\L	.	8.a/L	.	.
.	.	.	.	.	.	.	8ee\	.	8gg\ 8a\	.	.	.	.	.	.	.	.	.	.	.	.	.	.	.	.	.	.	.	.	.	.	.	.	.	.	.	.	.	.	.	.	.	.	.
.	16aa\Jk 16ggn\ 16ee\ 16a\	.	.	.	.	.	.	.	.	.	.	.	.	.	.	.	.	.	.	.	.	.	.	.	.	16A/Jk	.	16a\Jk	.	.	.	.	.	16ee\Jk	.	16gg\Jk	.	16ee\Jk	.	16gg\Jk	.	16a/Jk	.	.
=50	=50	=50	=50	=50	=50	=50	=50	=50	=50	=50	=50	=50	=50	=50	=50	=50	=50	=50	=50	=50	=50	=50	=50	=50	=50	=50	=50	=50	=50	=50	=50	=50	=50	=50	=50	=50	=50	=50	=50	=50	=50	=50	=50	=50
!	!	!	!	!	!	!	!	!	!	!	!LO:PB:g=original	!	!	!	!	!	!	!	!	!	!	!	!	!	!	!LO:PB:g=original	!	!LO:PB:g=original	!	!	!	!	!	!	!	!	!	!	!	!	!	!	!	!
!	!LO:SIC:v:s=2aa 2ff# 2dd 2a	!	!	!	!	!	!	!	!	!	!	!	!	!	!	!	!	!	!	!	!	!	!	!	!	!	!	!	!	!	!	!	!	!	!	!	!	!	!	!	!	!	!	!
4D\	2aa\ 2ff\ 2dd\ 2a\	.	(4D\	.	(4d\	.	8dd\	.	8ff#X\ 8a\	.	4D/	De-	4A\	De-	4d\	De-	4f#X/	De-	2.r	4D\	.	2d/	.	2dd\	.	2A/	.	2a\	.	(4D\	.	(4D\	.	2dd\	.	2ff#X\	.	2dd\	.	2ff#X\	.	2a/	.	2.ryy
.	.	.	.	.	.	.	4dd\	.	4ff#\ 4a\	.	.	.	.	.	.	.	.	.	.	.	.	.	.	.	.	.	.	.	.	.	.	.	.	.	.	.	.	.	.	.	.	.	.	.
4F#X\	.	.	4F#X\	.	4f#X\	.	.	.	.	.	4D/	-i	4A\	-i	4d\	-i	4f#/	-i	.	4F#X\	.	.	.	.	.	.	.	.	.	4F#X\	.	4F#X\	.	.	.	.	.	.	.	.	.	.	.	.
.	.	.	.	.	.	.	4dd\	.	4ff#\ 4a\	.	.	.	.	.	.	.	.	.	.	.	.	.	.	.	.	.	.	.	.	.	.	.	.	.	.	.	.	.	.	.	.	.	.	.
!	!LO:SIC:v:s=8.aaL 8.ff# 8.dd 8.a	!	!	!	!	!	!	!	!	!	!	!	!	!	!	!	!	!	!	!	!	!	!	!	!	!	!	!	!	!	!	!	!	!	!	!	!	!	!	!	!	!	!	!
4AA/	8.aa\L 8.ff\ 8.dd\ 8.a\	.	4AA/)	.	4A/)	.	.	.	.	.	4D/	qui	4A\	qui	4d\	qui	4f#/	qui	.	4AA/	.	4r	.	4r	.	8.A/L	.	8.a\L	.	4AA/)	.	4AA/)	.	8.dd\L	.	8.ff#\L	.	8.dd\L	.	8.ff#\L	.	8.a/L	.	.
.	.	.	.	.	.	.	8dd\	.	8ff#\ 8a\	.	.	.	.	.	.	.	.	.	.	.	.	.	.	.	.	.	.	.	.	.	.	.	.	.	.	.	.	.	.	.	.	.	.	.
!	!LO:SIC:v:s=16aaJk 16ff# 16dd 16a	!	!	!	!	!	!	!	!	!	!	!	!	!	!	!	!	!	!	!	!	!	!	!	!	!	!	!	!	!	!	!	!	!	!	!	!	!	!	!	!	!	!	!
.	16aa\Jk 16ff\ 16dd\ 16a\	.	.	.	.	.	.	.	.	.	.	.	.	.	.	.	.	.	.	.	.	.	.	.	.	16A/Jk	.	16a\Jk	.	.	.	.	.	16dd\Jk	.	16ff#\Jk	.	16dd\Jk	.	16ff#\Jk	.	16a/Jk	.	.
=51	=51	=51	=51	=51	=51	=51	=51	=51	=51	=51	=51	=51	=51	=51	=51	=51	=51	=51	=51	=51	=51	=51	=51	=51	=51	=51	=51	=51	=51	=51	=51	=51	=51	=51	=51	=51	=51	=51	=51	=51	=51	=51	=51	=51
!LO:PB:g=original	!	!	!	!	!	!	!	!	!	!	!	!	!LO:PB:g=original	!	!LO:PB:g=original	!	!	!	!	!	!	!	!	!	!	!	!	!	!	!	!	!	!	!	!	!	!	!	!	!	!	!	!	!
!	!	!	!	!	!LO:SIC:s=(4A	!	!	!	!	!	!	!	!	!	!	!	!	!	!	!	!	!LO:TX:a:t=1.:mod=	!	!LO:TX:a:t=1.:mod=	!	!	!	!	!	!	!	!	!	!	!	!	!	!	!	!	!	!	!	!
4AA/	2aa\ 2gg\ 2ee\ 2a\	.	(4AA/	.	4A/	.	8ee\	.	8gg\ 8a\	.	2.C#X/	tol-	2.A\	tol-	2.e\	tol-	2.g/	tol-	2.r	4AA/	.	2.r	.	2.r	.	2A/	.	2a\	.	(4AA/	.	(4AA/	.	2ee\	.	2gg\	.	2ee\	.	2gg\	.	2a/	.	2.ryy
.	.	.	.	.	.	.	4ee\	.	4gg\ 4a\	.	.	.	.	.	.	.	.	.	.	.	.	.	.	.	.	.	.	.	.	.	.	.	.	.	.	.	.	.	.	.	.	.	.	.
4BBn/	.	.	4BBn/	.	4Bn/	.	.	.	.	.	.	.	.	.	.	.	.	.	.	4BBn/	.	.	.	.	.	.	.	.	.	4BBn/	.	4BBn/	.	.	.	.	.	.	.	.	.	.	.	.
.	.	.	.	.	.	.	4ee\	.	4gg\ 4a\	.	.	.	.	.	.	.	.	.	.	.	.	.	.	.	.	.	.	.	.	.	.	.	.	.	.	.	.	.	.	.	.	.	.	.
!	!	!	!	!	!LO:SIC:s=4c#)	!	!	!	!	!	!	!	!	!	!	!	!	!	!	!	!	!	!	!	!	!	!	!	!	!	!	!	!	!	!	!	!	!	!	!	!	!	!	!
4C#X/	8.gg\L 8.ee\ 8.a\	.	4C#X/)	.	4c#X/	.	.	.	.	.	.	.	.	.	.	.	.	.	.	4C#X/	.	.	.	.	.	8.A/L	.	8.a\L	.	4C#X/)	.	4C#X/)	.	8.ee\L	.	8.gg\L	.	8.ee\L	.	8.gg\L	.	8.a/L	.	.
.	.	.	.	.	.	.	8ee\	.	8gg\ 8a\	.	.	.	.	.	.	.	.	.	.	.	.	.	.	.	.	.	.	.	.	.	.	.	.	.	.	.	.	.	.	.	.	.	.	.
.	16gg\Jk 16ee\ 16a\	.	.	.	.	.	.	.	.	.	.	.	.	.	.	.	.	.	.	.	.	.	.	.	.	16A/Jk	.	16a\Jk	.	.	.	.	.	16ee\Jk	.	16gg\Jk	.	16ee\Jk	.	16gg\Jk	.	16a/Jk	.	.
=52	=52	=52	=52	=52	=52	=52	=52	=52	=52	=52	=52	=52	=52	=52	=52	=52	=52	=52	=52	=52	=52	=52	=52	=52	=52	=52	=52	=52	=52	=52	=52	=52	=52	=52	=52	=52	=52	=52	=52	=52	=52	=52	=52	=52
!	!	!	!	!	!	!	!	!	!	!	!	!	!	!	!	!	!	!	!	!	!	!	!	!	!	!	!	!	!	!	!	!	!	!	!LO:PB:g=original	!	!	!	!	!	!	!	!	!
*	*^	*	*	*	*	*	*	*	*	*	*	*	*	*	*	*	*	*	*	*	*	*	*	*	*	*	*	*	*	*	*	*	*	*	*	*	*	*	*	*	*	*	*	*
!	!	!	!	!LO:MO:mod=*tremolo	!	!LO:MO:mod=*tremolo	!	!	!	!	!	!	!	!	!	!	!	!	!	!	!	!	!	!	!	!	!	!	!	!	!	!	!	!	!	!	!	!	!	!	!	!	!	!	!
*tremolo	*	*	*	*null	*	*null	*	*tremolo	*	*	*	*	*	*	*	*	*	*	*	*	*	*	*	*	*	*	*	*	*	*	*	*	*	*	*	*	*	*	*	*	*	*	*2\right	*	*
!	!	!	!	!	!	!	!	!	!	!	!	!	!	!	!	!	!	!	!	!	!	!	!	!	!	!	!	!	!	!	!	!	!LO:SIC:s=(4D	!	!	!	!	!	!	!	!	!	!	!	!
8D\L	4ff#X/	[2.dd\	.	8D\L	.	8d\L	.	16dd\LL	.	16ff#X\KL	.	(4D\	-lis	8A\	-lis	2d\	-lis	(4f#X/	-lis	2.r	4D\	.	2d/	.	2dd\	.	4A/	.	4a\	.	(4D\	.	4D\	.	2dd\	.	4ff#X\	.	2dd\	.	4ff#X\	.	2dd\	.	2.ryy
.	.	.	.	.	.	.	.	16dd\	.	8dd\	.	.	.	.	.	.	.	.	.	.	.	.	.	.	.	.	.	.	.	.	.	.	.	.	.	.	.	.	.	.	.	.	.	.	.
!	!	!	!	!LO:SIC:s=8DJ	!	!	!	!	!	!	!	!	!	!	!	!	!	!	!	!	!	!	!	!	!	!	!	!	!	!	!	!	!	!	!	!	!	!	!	!	!	!	!	!	!
8D\J	.	.	.	8D\	.	8d\J	.	16dd\	.	.	.	.	.	8d\	pec-	.	.	.	.	.	.	.	.	.	.	.	.	.	.	.	.	.	.	.	.	.	.	.	.	.	.	.	.	.	.
.	.	.	.	.	.	.	.	16dd\	.	16ff#\Jk	.	.	.	.	.	.	.	.	.	.	.	.	.	.	.	.	.	.	.	.	.	.	.	.	.	.	.	.	.	.	.	.	.	.	.
!	!	!	!	!LO:SIC:s=8EL	!	!	!	!	!	!	!	!	!	!	!	!	!	!	!	!	!	!	!	!	!	!	!	!	!	!	!	!	!	!	!	!	!	!	!	!	!	!	!	!	!
8E\L	4gg/	.	.	8E\	.	8e\L	.	16dd\	.	16gg\KL	.	4E\)	.	4d\	-ca-	.	.	4g/)	.	.	4E\	.	.	.	.	.	4r	.	4r	.	4E\	.	4E\	.	.	.	4gg\	.	.	.	4gg\	.	.	.	.
.	.	.	.	.	.	.	.	16dd\	.	8dd\	.	.	.	.	.	.	.	.	.	.	.	.	.	.	.	.	.	.	.	.	.	.	.	.	.	.	.	.	.	.	.	.	.	.	.
!	!	!	!	!LO:SIC:s=8EJ	!	!	!	!	!	!	!	!	!	!	!	!	!	!	!	!	!	!	!	!	!	!	!	!	!	!	!	!	!	!	!	!	!	!	!	!	!	!	!	!	!
8E\J	.	.	.	8E\	.	8e\J	.	16dd\	.	.	.	.	.	.	.	.	.	.	.	.	.	.	.	.	.	.	.	.	.	.	.	.	.	.	.	.	.	.	.	.	.	.	.	.	.
.	.	.	.	.	.	.	.	16dd\	.	16gg\Jk	.	.	.	.	.	.	.	.	.	.	.	.	.	.	.	.	.	.	.	.	.	.	.	.	.	.	.	.	.	.	.	.	.	.	.
!	!	!	!	!LO:SIC:s=8F#L	!	!	!	!	!	!	!	!	!	!	!	!	!	!	!	!	!	!	!	!	!	!	!	!	!	!	!	!	!LO:SIC:s=4F#)	!	!	!	!	!	!	!	!	!	!	!	!
8F#X\L	4aa/	.	.	8F#X\	.	8f#X\L	.	16dd\	.	16aa\KL	.	4F#X\	pec-	4d\	-ta	4d\	pec-	4a\	pec-	.	4F#X\	.	8.d/L	.	8.dd\L	.	4r	.	4r	.	4F#X\)	.	4F#X\	.	8.dd\L	.	4aa\	.	8.dd\L	.	4aa\	.	8.dd\L	.	.
.	.	.	.	.	.	.	.	16dd\	.	8dd\	.	.	.	.	.	.	.	.	.	.	.	.	.	.	.	.	.	.	.	.	.	.	.	.	.	.	.	.	.	.	.	.	.	.	.
8F#\J	.	.	.	8F#\J	.	8f#\J	.	16dd\	.	.	.	.	.	.	.	.	.	.	.	.	.	.	.	.	.	.	.	.	.	.	.	.	.	.	.	.	.	.	.	.	.	.	.	.	.
.	.	.	.	.	.	.	.	16dd\JJ	.	16aa\Jk	.	.	.	.	.	.	.	.	.	.	.	.	16d/Jk	.	16dd\Jk	.	.	.	.	.	.	.	.	.	16dd\Jk	.	.	.	16dd\Jk	.	.	.	16dd\Jk	.	.
*	*	*	*	*	*	*custos	*	*	*	*	*	*	*	*	*	*	*	*	*	*	*	*	*	*	*	*	*	*	*	*	*	*	*	*	*	*	*	*	*	*	*	*	*	*	*
=53	=53	=53	=53	=53	=53	=53	=53	=53	=53	=53	=53	=53	=53	=53	=53	=53	=53	=53	=53	=53	=53	=53	=53	=53	=53	=53	=53	=53	=53	=53	=53	=53	=53	=53	=53	=53	=53	=53	=53	=53	=53	=53	=53	=53	=53
!	!	!	!	!LO:PB:g=original	!	!	!	!	!	!	!	!	!	!	!	!	!	!	!	!	!	!	!	!	!	!	!	!	!	!	!	!	!LO:PB:g=original	!	!	!	!	!	!	!	!	!	!LO:PB:g=original	!	!
!	!	!	!	!	!	!	!	!	!	!	!	!	!	!	!	!	!	!	!	!	!	!	!	!	!	!	!LO:TX:a:t=2.:mod=	!	!LO:TX:a:t=2.:mod=	!	!LO:SIC:s=(4G	!	!LO:SIC:s=(4G	!	!	!	!	!	!	!	!	!	!	!	!
8G\L	4bbn/	2.dd\_	.	8G\L	.	8g\L	.	16dd\LL	.	16bb-\KL	.	(4G\	-ca-	2d\	mun-	2d\	-ca-	4bn\	-ca-	2.r	4G\	.	2d/	.	2dd\	.	1.r	.	1.r	.	4G\	.	4G\	.	2dd\	.	4bbX\	.	2dd\	.	4bbn\	.	2dd\	.	2.ryy
.	.	.	.	.	.	.	.	16dd\	.	8dd\	.	.	.	.	.	.	.	.	.	.	.	.	.	.	.	.	.	.	.	.	.	.	.	.	.	.	.	.	.	.	.	.	.	.	.
!	!	!	!	!LO:SIC:s=8GJ	!	!	!	!	!	!	!	!	!	!	!	!	!	!	!	!	!	!	!	!	!	!	!	!	!	!	!	!	!	!	!	!	!	!	!	!	!	!	!	!	!
8G\J	.	.	.	8G\	.	8g\J	.	16dd\	.	.	.	.	.	.	.	.	.	.	.	.	.	.	.	.	.	.	.	.	.	.	.	.	.	.	.	.	.	.	.	.	.	.	.	.	.
.	.	.	.	.	.	.	.	16dd\	.	16bb-\Jk	.	.	.	.	.	.	.	.	.	.	.	.	.	.	.	.	.	.	.	.	.	.	.	.	.	.	.	.	.	.	.	.	.	.	.
!	!	!	!	!LO:SIC:s=8E#L	!	!	!	!	!	!	!	!	!	!	!	!	!	!	!	!	!	!	!	!	!	!	!	!	!	!	!	!	!	!	!	!	!	!	!	!	!	!	!	!	!
8E#X\L	4gg#X/	.	.	8E#X\	.	8e#X\L	.	16dd\	.	16gg#X\KL	.	4E#X\)	.	.	.	.	.	4g#X\	.	.	4E#X\	.	.	.	.	.	.	.	.	.	4E#X\	.	4E#X\	.	.	.	4gg#X\	.	.	.	4gg#X\	.	.	.	.
.	.	.	.	.	.	.	.	16dd\	.	8dd\	.	.	.	.	.	.	.	.	.	.	.	.	.	.	.	.	.	.	.	.	.	.	.	.	.	.	.	.	.	.	.	.	.	.	.
!	!	!	!	!LO:SIC:s=8E#J	!	!	!	!	!	!	!	!	!	!	!	!	!	!	!	!	!	!	!	!	!	!	!	!	!	!	!	!	!	!	!	!	!	!	!	!	!	!	!	!	!
8E#\J	.	.	.	8E#\	.	8e#\J	.	16dd\	.	.	.	.	.	.	.	.	.	.	.	.	.	.	.	.	.	.	.	.	.	.	.	.	.	.	.	.	.	.	.	.	.	.	.	.	.
.	.	.	.	.	.	.	.	16dd\	.	16gg#\Jk	.	.	.	.	.	.	.	.	.	.	.	.	.	.	.	.	.	.	.	.	.	.	.	.	.	.	.	.	.	.	.	.	.	.	.
!	!	!	!	!LO:SIC:s=8F#L	!	!	!	!	!	!LO:PB:g=original	!	!	!	!	!	!	!	!	!	!	!	!	!	!	!	!	!	!	!	!	!LO:SIC:s=4F#)	!	!LO:SIC:s=4F#)	!	!	!	!	!	!	!	!	!	!	!	!
8F#X\L	4aa/	.	.	8F#X\	.	8f#X\L	.	16dd\	.	16aa\KL	.	4F#X\	-ta	4d\	-di	4d\	-ta	8a\L	-ta	.	4F#X\	.	8.d/L	.	8.dd\L	.	.	.	.	.	4F#X\	.	4F#X\	.	8.dd\L	.	4aa\	.	8.dd\L	.	4aa\	.	8.dd\L	.	.
.	.	.	.	.	.	.	.	16dd\	.	8dd\	.	.	.	.	.	.	.	.	.	.	.	.	.	.	.	.	.	.	.	.	.	.	.	.	.	.	.	.	.	.	.	.	.	.	.
8F#\J	.	.	.	8F#\J	.	8f#\J	.	16dd\	.	.	.	.	.	.	.	.	.	8dd\J	.	.	.	.	.	.	.	.	.	.	.	.	.	.	.	.	.	.	.	.	.	.	.	.	.	.	.
.	.	.	.	.	.	.	.	16dd\JJ	.	16ff#X\Jk	.	.	.	.	.	.	.	.	.	.	.	.	16d/Jk	.	16dd\Jk	.	.	.	.	.	.	.	.	.	16dd\Jk	.	.	.	16dd\Jk	.	.	.	16dd\Jk	.	.
!	!	!	!	!	!	!	!	!LO:MO:mod=*null:null	!	!	!	!	!	!	!	!	!	!	!	!	!	!	!	!	!	!	!	!	!	!	!	!	!	!	!	!	!	!	!	!	!	!	!	!	!
*	*	*	*	*	*	*	*	*Xtremolo	*	*	*	*	*	*	*	*	*	*	*	*	*	*	*	*	*	*	*	*	*	*	*	*	*	*	*	*	*	*	*	*	*	*	*	*	*
*	*	*	*	*	*	*	*	*	*	*	*	*	*	*	*	*	*	*	*	*	*	*	*	*	*	*	*	*	*	*	*	*	*	*	*	*	*	*	*custos	*	*	*	*	*	*
=54	=54	=54	=54	=54	=54	=54	=54	=54	=54	=54	=54	=54	=54	=54	=54	=54	=54	=54	=54	=54	=54	=54	=54	=54	=54	=54	=54	=54	=54	=54	=54	=54	=54	=54	=54	=54	=54	=54	=54	=54	=54	=54	=54	=54	=54
!	!	!	!	!	!	!	!	!LO:PB:g=original	!	!	!	!	!	!	!	!	!	!LO:PB:g=original	!	!	!	!	!LO:PB:g=original	!	!	!	!	!	!	!	!	!	!	!	!	!	!LO:PB:g=original	!	!LO:PB:g=original	!	!LO:PB:g=original	!	!	!	!
!	!	!	!	!	!	!LO:MO:mod=*null:null	!	!	!	!	!	!	!	!	!	!	!	!	!	!	!	!	!	!	!	!	!	!	!	!	!	!	!	!	!	!	!	!	!	!	!	!	!	!	!
*	*	*	*	*	*	*tremolo	*	*	*	*	*	*	*	*	*	*	*	*	*	*	*	*	*	*	*	*	*	*	*	*	*	*	*	*	*	*	*	*	*	*	*	*	*	*	*
2E\	2ggn/	4dd\]	.	8En\L	.	8en\L	.	16dd\LL	.	16ggn\KL	.	2En\	mun-	4r	.	2g\	mun-	(4dd\	mun-	2.r	2En\	.	4d/	.	4dd\	.	.	.	.	.	2En\	.	2En\	.	4dd\	.	2ggn\	.	4dd\	.	2ggn\	.	2gg\	.	2.ryy
.	.	.	.	.	.	.	.	16dd\	.	8bbn\	.	.	.	.	.	.	.	.	.	.	.	.	.	.	.	.	.	.	.	.	.	.	.	.	.	.	.	.	.	.	.	.	.	.	.
.	.	.	.	8E\	.	8e\	.	16dd\	.	.	.	.	.	.	.	.	.	.	.	.	.	.	.	.	.	.	.	.	.	.	.	.	.	.	.	.	.	.	.	.	.	.	.	.	.
.	.	.	.	.	.	.	.	16dd\JJ	.	16gg\Jk	.	.	.	.	.	.	.	.	.	.	.	.	.	.	.	.	.	.	.	.	.	.	.	.	.	.	.	.	.	.	.	.	.	.	.
.	.	4cc#X\	.	8E\	.	8e\	.	16cc#X\LL	.	16gg\KL	.	.	.	4r	.	.	.	4cc#X\)	.	.	.	.	4r	.	4r	.	.	.	.	.	.	.	.	.	4cc#X\	.	.	.	4cc#X\	.	.	.	.	.	.
.	.	.	.	.	.	.	.	16cc#\	.	8aa\	.	.	.	.	.	.	.	.	.	.	.	.	.	.	.	.	.	.	.	.	.	.	.	.	.	.	.	.	.	.	.	.	.	.	.
.	.	.	.	8E\J	.	8e\J	.	16cc#\	.	.	.	.	.	.	.	.	.	.	.	.	.	.	.	.	.	.	.	.	.	.	.	.	.	.	.	.	.	.	.	.	.	.	.	.	.
.	.	.	.	.	.	.	.	16cc#\JJ	.	16gg\Jk	.	.	.	.	.	.	.	.	.	.	.	.	.	.	.	.	.	.	.	.	.	.	.	.	.	.	.	.	.	.	.	.	.	.	.
!	!	!	!	!	!	!LO:MO:mod=*null:null	!	!	!	!	!	!	!	!	!	!	!	!	!	!	!	!	!	!	!	!	!	!	!	!	!	!	!	!	!	!	!	!	!	!	!	!	!	!	!
*	*	*	*	*	*	*Xtremolo	*	*	*	*	*	*	*	*	*	*	*	*	*	*	*	*	*	*	*	*	*	*	*	*	*	*	*	*	*	*	*	*	*	*	*	*	*	*	*
8D\L	4ff#X/	4dd\	.	8D\L	.	8d\L	.	16dd\LL	.	16ff#X\KL	.	4D\	-di	8.d\	mi-	4f#X\	-di	4dd\	-di	.	4D\	.	4r	.	4r	.	.	.	.	.	4Dn\	.	4Dn\	.	4dd\	.	4ff#X\	.	4a/	.	4aa\	.	4ff#X\	.	.
.	.	.	.	.	.	.	.	16dd\	.	8aa\	.	.	.	.	.	.	.	.	.	.	.	.	.	.	.	.	.	.	.	.	.	.	.	.	.	.	.	.	.	.	.	.	.	.	.
8D\J	.	.	.	8D\J	.	8d\J	.	16dd\	.	.	.	.	.	.	.	.	.	.	.	.	.	.	.	.	.	.	.	.	.	.	.	.	.	.	.	.	.	.	.	.	.	.	.	.	.
.	.	.	.	.	.	.	.	16dd\JJ	.	16ddd\Jk	.	.	.	16d\	-se-	.	.	.	.	.	.	.	.	.	.	.	.	.	.	.	.	.	.	.	.	.	.	.	.	.	.	.	.	.	.
!	!	!	!	!	!	!	!	!	!	!	!	!LO:SIC:v:t=custos	!	!	!	!	!	!	!	!	!LO:TX:b:t=V&colon;S&colon;:mod=	!	!	!	!	!	!	!	!	!	!	!	!	!	!	!	!	!	!	!	!	!	!	!	!
=55	=55	=55	=55	=55	=55	=55	=55	=55	=55	=55	=55	=55	=55	=55	=55	=55	=55	=55	=55	=55	=55	=55	=55	=55	=55	=55	=55	=55	=55	=55	=55	=55	=55	=55	=55	=55	=55	=55	=55	=55	=55	=55	=55	=55	=55
!	!	!	!	!	!	!	!	!	!	!	!	!LO:PB:g=original	!	!	!	!	!	!	!	!	!	!	!	!	!	!	!	!	!	!	!LO:PB:g=original	!	!	!	!	!	!	!	!	!	!	!	!	!	!
!	!	!	!	!	!	!LO:MO:mod=*null:null	!	!LO:MO:mod=*null:null	!	!	!	!	!	!	!	!	!	!	!	!	!	!	!	!	!	!	!	!	!	!	!	!	!	!	!	!	!	!	!	!	!	!	!	!	!
*	*	*	*	*	*	*tremolo	*	*tremolo	*	*	*	*	*	*	*	*	*	*	*	*	*	*	*	*	*	*	*	*	*	*	*	*	*	*	*	*	*	*	*	*	*	*	*	*	*
!	!	!	!	!	!	!	!	!	!	!	!	!	!	!	!	!	!	!	!	!	!LO:SIC:s=2.C	!	!	!	!	!	!	!	!	!	!	!	!	!	!	!	!	!	!	!	!	!	!	!	!
8Cn/L	2.ff#X/ 2.dd/	2.a\	.	8Cn/L	.	8cn/L	.	16a/LL 16f#X/	.	16ddd\KL	.	4r	.	4d\	-re-	4r	.	4r	.	2.r	2.Cn/	.	2.d/	.	2.dd\	.	2.A/	.	2.a\	.	2.Cn/	.	2.Cn/	.	2.f#X/	.	2.aa\	.	2.dd\	.	2.ff#X\	.	2.aa\	.	2.ryy
.	.	.	.	.	.	.	.	16a/ 16f#/	.	8dd\	.	.	.	.	.	.	.	.	.	.	.	.	.	.	.	.	.	.	.	.	.	.	.	.	.	.	.	.	.	.	.	.	.	.	.
8C/	.	.	.	8C/	.	8c/	.	16a/ 16f#/	.	.	.	.	.	.	.	.	.	.	.	.	.	.	.	.	.	.	.	.	.	.	.	.	.	.	.	.	.	.	.	.	.	.	.	.	.
.	.	.	.	.	.	.	.	16a/ 16f#/	.	8ddd\	.	.	.	.	.	.	.	.	.	.	.	.	.	.	.	.	.	.	.	.	.	.	.	.	.	.	.	.	.	.	.	.	.	.	.
8C/	.	.	.	8C/	.	8c/	.	16a/ 16f#/	.	.	.	4r	.	4d\	-re	4r	.	4r	.	.	.	.	.	.	.	.	.	.	.	.	.	.	.	.	.	.	.	.	.	.	.	.	.	.	.
.	.	.	.	.	.	.	.	16a/ 16f#/	.	8dd\	.	.	.	.	.	.	.	.	.	.	.	.	.	.	.	.	.	.	.	.	.	.	.	.	.	.	.	.	.	.	.	.	.	.	.
8C/	.	.	.	8C/	.	8c/	.	16a/ 16f#/	.	.	.	.	.	.	.	.	.	.	.	.	.	.	.	.	.	.	.	.	.	.	.	.	.	.	.	.	.	.	.	.	.	.	.	.	.
.	.	.	.	.	.	.	.	16a/ 16f#/	.	8ddd\	.	.	.	.	.	.	.	.	.	.	.	.	.	.	.	.	.	.	.	.	.	.	.	.	.	.	.	.	.	.	.	.	.	.	.
!	!	!	!	!	!	!	!	!	!	!	!	!LO:SIC:s=8.C	!	!	!	!	!	!	!	!	!	!	!	!	!	!	!	!	!	!	!	!	!	!	!	!	!	!	!	!	!	!	!	!	!
8C/	.	.	.	8C/	.	8c/	.	16a/ 16f#/	.	.	.	8.Cn/	mi-	4r	.	8.f#X\	mi-	8.a\	mi-	.	.	.	.	.	.	.	.	.	.	.	.	.	.	.	.	.	.	.	.	.	.	.	.	.	.
.	.	.	.	.	.	.	.	16a/ 16f#/	.	8dd\	.	.	.	.	.	.	.	.	.	.	.	.	.	.	.	.	.	.	.	.	.	.	.	.	.	.	.	.	.	.	.	.	.	.	.
8C/J	.	.	.	8C/J	.	8c/J	.	16a/ 16f#/	.	.	.	.	.	.	.	.	.	.	.	.	.	.	.	.	.	.	.	.	.	.	.	.	.	.	.	.	.	.	.	.	.	.	.	.	.
.	.	.	.	.	.	.	.	16a/JJ 16f#/	.	[16ddd\Jk	.	16C/	-se-	.	.	16f#\	-se-	16a\	-se-	.	.	.	.	.	.	.	.	.	.	.	.	.	.	.	.	.	.	.	.	.	.	.	.	.	.
*	*	*	*	*custos	*	*	*	*	*	*	*	*	*	*	*	*custos	*	*	*	*	*	*	*	*	*	*	*	*	*	*	*	*	*	*	*	*	*	*	*	*	*	*	*	*	*
=56	=56	=56	=56	=56	=56	=56	=56	=56	=56	=56	=56	=56	=56	=56	=56	=56	=56	=56	=56	=56	=56	=56	=56	=56	=56	=56	=56	=56	=56	=56	=56	=56	=56	=56	=56	=56	=56	=56	=56	=56	=56	=56	=56	=56	=56
!	!	!	!	!LO:PB:g=original	!	!	!	!	!	!	!	!	!	!LO:PB:g=original	!	!LO:LB:g=original	!	!	!	!	!	!	!	!	!	!	!	!	!	!	!	!	!	!	!	!	!	!	!	!	!	!	!	!	!
!	!	!	!	!	!	!	!	!	!	!	!	!	!	!	!	!	!	!	!	!	!	!	!LO:TX:a:t=4.:mod=	!	!LO:TX:a:t=4.:mod=	!	!LO:TX:a:t=1.:mod=	!	!LO:TX:a:t=1.:mod=	!	!	!	!	!	!	!	!	!	!	!	!	!	!	!	!
8BBn/L	2gg/	2.dd\	.	8BBn/L	.	8Bn/L	.	16g/LL	.	16ddd\KL]	.	4BBn/	-re-	4r	.	4g\	-re-	4g\	-re-	2.r	2BBn/	.	0.r	.	0.r	.	2.r	.	2.r	.	2BBn/	.	2BBn/	.	2g/	.	2gg\	.	2.dd\	.	2gg\	.	2.ddd\	.	2.ryy
.	.	.	.	.	.	.	.	16g/	.	8dd\	.	.	.	.	.	.	.	.	.	.	.	.	.	.	.	.	.	.	.	.	.	.	.	.	.	.	.	.	.	.	.	.	.	.	.
8BB/	.	.	.	8BB/	.	8B/	.	16g/	.	.	.	.	.	.	.	.	.	.	.	.	.	.	.	.	.	.	.	.	.	.	.	.	.	.	.	.	.	.	.	.	.	.	.	.	.
.	.	.	.	.	.	.	.	16g/	.	8ddd\	.	.	.	.	.	.	.	.	.	.	.	.	.	.	.	.	.	.	.	.	.	.	.	.	.	.	.	.	.	.	.	.	.	.	.
8BB/	.	.	.	8BB/	.	8B/	.	16g/	.	.	.	8BB/	-re	8.d\	mi-	8g\	-re	8g\	-re	.	.	.	.	.	.	.	.	.	.	.	.	.	.	.	.	.	.	.	.	.	.	.	.	.	.
.	.	.	.	.	.	.	.	16g/	.	8dd\	.	.	.	.	.	.	.	.	.	.	.	.	.	.	.	.	.	.	.	.	.	.	.	.	.	.	.	.	.	.	.	.	.	.	.
8BB/J	.	.	.	8BB/J	.	8B/J	.	16g/	.	.	.	8r	.	.	.	8r	.	8r	.	.	.	.	.	.	.	.	.	.	.	.	.	.	.	.	.	.	.	.	.	.	.	.	.	.	.
.	.	.	.	.	.	.	.	16g/JJ	.	8ddd\	.	.	.	16d\	-se-	.	.	.	.	.	.	.	.	.	.	.	.	.	.	.	.	.	.	.	.	.	.	.	.	.	.	.	.	.	.
!	!	!	!	!	!	!LO:MO:mod=*null:null	!	!LO:MO:mod=*null:null	!	!	!	!	!	!	!	!	!	!	!	!	!	!	!	!	!	!	!	!	!	!	!	!	!	!	!	!	!	!	!	!	!	!	!	!	!
*	*	*	*	*	*	*Xtremolo	*	*Xtremolo	*	*	*	*	*	*	*	*	*	*	*	*	*	*	*	*	*	*	*	*	*	*	*	*	*	*	*	*	*	*	*	*	*	*	*	*	*
8BB-X/L	4gg#X/	.	.	8BB-X/L	.	8B-X/L	.	16g#X/LL	.	.	.	8.BB-X/	mi-	4d\	-re-	8.g#X\	mi-	8.dd\	mi-	.	4BB-X/	.	.	.	.	.	.	.	.	.	4BB-X/	.	4BB-X/	.	4g#X/	.	4dd\	.	.	.	4gg#X\	.	.	.	.
.	.	.	.	.	.	.	.	16g#/	.	8dd\	.	.	.	.	.	.	.	.	.	.	.	.	.	.	.	.	.	.	.	.	.	.	.	.	.	.	.	.	.	.	.	.	.	.	.
8BB-/J	.	.	.	8BB-/J	.	8B-/J	.	16g#/	.	.	.	.	.	.	.	.	.	.	.	.	.	.	.	.	.	.	.	.	.	.	.	.	.	.	.	.	.	.	.	.	.	.	.	.	.
.	.	.	.	.	.	.	.	16g#/JJ	.	16ddd\Jk	.	16BB-/	-se-	.	.	16g#\	-se-	16dd\	-se-	.	.	.	.	.	.	.	.	.	.	.	.	.	.	.	.	.	.	.	.	.	.	.	.	.	.
!	!	!	!	!	!	!	!	!LO:MO:mod=*Xtremolo	!	!	!	!	!	!	!	!	!	!	!	!	!	!	!	!	!	!	!	!	!	!	!	!	!	!	!	!	!	!	!	!	!	!	!	!	!
*	*	*	*	*	*	*	*	*null	*	*custos	*	*	*	*	*	*	*	*	*	*	*	*	*	*	*	*	*	*	*	*	*	*	*	*	*	*	*	*	*	*	*	*	*	*	*
=57	=57	=57	=57	=57	=57	=57	=57	=57	=57	=57	=57	=57	=57	=57	=57	=57	=57	=57	=57	=57	=57	=57	=57	=57	=57	=57	=57	=57	=57	=57	=57	=57	=57	=57	=57	=57	=57	=57	=57	=57	=57	=57	=57	=57	=57
!	!	!	!	!	!	!LO:MO:mod=*null:null	!	!LO:PB:g=original	!	!LO:PB:g=original	!	!	!	!	!	!	!	!	!	!	!	!	!	!	!	!	!	!	!	!	!	!	!	!	!	!	!	!	!	!	!	!	!	!	!
*	*	*	*	*	*	*tremolo	*	*	*	*	*	*	*	*	*	*	*	*	*	*	*	*	*	*	*	*	*	*	*	*	*	*	*	*	*	*	*	*	*	*	*	*	*	*	*
!	!	!	!	!	!	!	!	!	!	!	!	!	!	!	!	!	!	!	!	!	!	!	!	!	!	!	!	!	!	!	!	!	!	!	!LO:MO:mod=2.a	!	!LO:MO:mod=2.cc#	!	!LO:MO:mod=2.cc#	!	!	!	!	!	!
8AA/L	2.aa/	2.cc#X\	.	8AA/L	.	8A/L	.	16a/LL	.	16ccc#X\KL	.	4AA/	-re-	4e\	-re	4a\	-re-	4cc#X\	-re-	2.r	2.AA/	.	.	.	.	.	2.A/	.	2.a\	.	[2.AA/	.	2.AA/	.	2a/	.	2cc#X\	.	2cc#X\	.	2.aa\	.	2.ccc#X\	.	2.ryy
.	.	.	.	.	.	.	.	16e/ 16c/	.	8aa\	.	.	.	.	.	.	.	.	.	.	.	.	.	.	.	.	.	.	.	.	.	.	.	.	.	.	.	.	.	.	.	.	.	.	.
8AA/	.	.	.	8AA/	.	8A/	.	16e/ 16c/	.	.	.	.	.	.	.	.	.	.	.	.	.	.	.	.	.	.	.	.	.	.	.	.	.	.	.	.	.	.	.	.	.	.	.	.	.
.	.	.	.	.	.	.	.	16e/JJ 16c/	.	8ccc#\	.	.	.	.	.	.	.	.	.	.	.	.	.	.	.	.	.	.	.	.	.	.	.	.	.	.	.	.	.	.	.	.	.	.	.
*	*	*	*	*	*	*	*	*tremolo	*	*	*	*	*	*	*	*	*	*	*	*	*	*	*	*	*	*	*	*	*	*	*	*	*	*	*	*	*	*	*	*	*	*	*	*	*
8AA/	.	.	.	8AA/	.	8A/	.	16e/LL 16c/	.	.	.	8AA/	-re	8.e\	mi-	8a\	-re	8cc#\	-re	.	.	.	.	.	.	.	.	.	.	.	.	.	.	.	.	.	.	.	.	.	.	.	.	.	.
.	.	.	.	.	.	.	.	16e/ 16c/	.	8eee\	.	.	.	.	.	.	.	.	.	.	.	.	.	.	.	.	.	.	.	.	.	.	.	.	.	.	.	.	.	.	.	.	.	.	.
8AA/	.	.	.	8AA/	.	8A/	.	16e/ 16c/	.	.	.	8r	.	.	.	8r	.	8r	.	.	.	.	.	.	.	.	.	.	.	.	.	.	.	.	.	.	.	.	.	.	.	.	.	.	.
.	.	.	.	.	.	.	.	16e/ 16c/	.	8ccc#\	.	.	.	16e\	-se-	.	.	.	.	.	.	.	.	.	.	.	.	.	.	.	.	.	.	.	.	.	.	.	.	.	.	.	.	.	.
!	!	!	!	!	!	!	!	!	!	!	!	!	!	!	!	!	!	!	!	!	!	!	!	!	!	!	!	!	!	!	!	!	!	!	!LO:MO:mod=.	!	!LO:MO:mod=.	!	!LO:MO:mod=.	!	!	!	!	!	!
8AA/	.	.	.	8AA/	.	8A/	.	16e/ 16c/	.	.	.	4r	.	8.c#X\	-re-	4r	.	4r	.	.	.	.	.	.	.	.	.	.	.	.	.	.	.	.	4r	.	4r	.	4r	.	.	.	.	.	.
.	.	.	.	.	.	.	.	16e/ 16c/	.	8aa\	.	.	.	.	.	.	.	.	.	.	.	.	.	.	.	.	.	.	.	.	.	.	.	.	.	.	.	.	.	.	.	.	.	.	.
8AA/J	.	.	.	8AA/J	.	8A/J	.	16e/ 16c/	.	.	.	.	.	.	.	.	.	.	.	.	.	.	.	.	.	.	.	.	.	.	.	.	.	.	.	.	.	.	.	.	.	.	.	.	.
.	.	.	.	.	.	.	.	16e/JJ 16c/	.	16aa\Jk	.	.	.	16A\	-re	.	.	.	.	.	.	.	.	.	.	.	.	.	.	.	.	.	.	.	.	.	.	.	.	.	.	.	.	.	.
*	*	*	*	*	*	*	*	*	*	*	*	*	*	*	*	*	*	*	*	*	*	*	*	*	*	*	*	*	*	*	*	*	*	*custos	*	*	*	*	*	*	*	*	*	*	*
!LO:TX:b:t=V&colon;S&colon;:mod=	!	!	!	!	!	!	!	!	!	!	!	!	!	!	!	!	!	!	!	!	!	!	!	!	!	!	!	!	!	!	!	!	!	!	!	!	!	!	!	!	!	!	!	!	!
=58	=58	=58	=58	=58	=58	=58	=58	=58	=58	=58	=58	=58	=58	=58	=58	=58	=58	=58	=58	=58	=58	=58	=58	=58	=58	=58	=58	=58	=58	=58	=58	=58	=58	=58	=58	=58	=58	=58	=58	=58	=58	=58	=58	=58	=58
!LO:LB:g=original	!	!	!	!	!	!	!	!	!	!	!	!	!	!	!	!	!	!	!	!	!	!	!	!	!	!	!LO:PB:g=original	!	!LO:PB:g=original	!	!	!	!	!	!LO:LB:g=original	!	!	!	!	!	!	!	!	!	!
8AA/L	2.gg#X/	2.dd\ 2.bn\	.	8AA/L	.	8A/L	.	16fn/LL 16d/	.	8gg#X\ 8bn\	.	2.AA/	no-	2.d\	no-	2.g#X\	no-	2.bn\	no-	2.r	2.AA/	.	.	.	.	.	2.A/	.	2.a\	.	2.AA/_	.	2.fn\	.	2.dd\	.	2.gg#X\	.	2.g#X/	.	2.dd\	.	2.gg#X\	.	2.ryy
.	.	.	.	.	.	.	.	16f/ 16d/	.	.	.	.	.	.	.	.	.	.	.	.	.	.	.	.	.	.	.	.	.	.	.	.	.	.	.	.	.	.	.	.	.	.	.	.	.
8AA/	.	.	.	8AA/	.	8A/	.	16f/ 16d/	.	4gg#\ 4b\	.	.	.	.	.	.	.	.	.	.	.	.	.	.	.	.	.	.	.	.	.	.	.	.	.	.	.	.	.	.	.	.	.	.	.
.	.	.	.	.	.	.	.	16f/ 16d/	.	.	.	.	.	.	.	.	.	.	.	.	.	.	.	.	.	.	.	.	.	.	.	.	.	.	.	.	.	.	.	.	.	.	.	.	.
8AA/	.	.	.	8AA/	.	8A/	.	16f/ 16d/	.	.	.	.	.	.	.	.	.	.	.	.	.	.	.	.	.	.	.	.	.	.	.	.	.	.	.	.	.	.	.	.	.	.	.	.	.
.	.	.	.	.	.	.	.	16f/ 16d/	.	.	.	.	.	.	.	.	.	.	.	.	.	.	.	.	.	.	.	.	.	.	.	.	.	.	.	.	.	.	.	.	.	.	.	.	.
8AA/	.	.	.	8AA/	.	8A/	.	16f/ 16d/	.	4gg#\ 4b\	.	.	.	.	.	.	.	.	.	.	.	.	.	.	.	.	.	.	.	.	.	.	.	.	.	.	.	.	.	.	.	.	.	.	.
.	.	.	.	.	.	.	.	16f/ 16d/	.	.	.	.	.	.	.	.	.	.	.	.	.	.	.	.	.	.	.	.	.	.	.	.	.	.	.	.	.	.	.	.	.	.	.	.	.
8AA/	.	.	.	8AA/	.	8A/	.	16f/ 16d/	.	.	.	.	.	.	.	.	.	.	.	.	.	.	.	.	.	.	.	.	.	.	.	.	.	.	.	.	.	.	.	.	.	.	.	.	.
.	.	.	.	.	.	.	.	16f/ 16d/	.	.	.	.	.	.	.	.	.	.	.	.	.	.	.	.	.	.	.	.	.	.	.	.	.	.	.	.	.	.	.	.	.	.	.	.	.
8AA/J	.	.	.	8AA/J	.	8A/J	.	16f/ 16d/	.	8gg#\ 8b\	.	.	.	.	.	.	.	.	.	.	.	.	.	.	.	.	.	.	.	.	.	.	.	.	.	.	.	.	.	.	.	.	.	.	.
.	.	.	.	.	.	.	.	16f/JJ 16d/	.	.	.	.	.	.	.	.	.	.	.	.	.	.	.	.	.	.	.	.	.	.	.	.	.	.	.	.	.	.	.	.	.	.	.	.	.
*	*	*	*	*	*	*	*	*	*	*	*	*	*	*	*	*	*	*	*	*	*	*	*	*	*	*	*	*	*	*	*	*	*	*	*	*	*	*	*	*	*	*	*custos	*	*
*	*v	*v	*	*	*	*	*	*	*	*	*	*	*	*	*	*	*	*	*	*	*	*	*	*	*	*	*	*	*	*	*	*	*	*	*	*	*	*	*	*	*	*	*	*	*
=59	=59	=59	=59	=59	=59	=59	=59	=59	=59	=59	=59	=59	=59	=59	=59	=59	=59	=59	=59	=59	=59	=59	=59	=59	=59	=59	=59	=59	=59	=59	=59	=59	=59	=59	=59	=59	=59	=59	=59	=59	=59	=59	=59	=59
!	!	!	!	!LO:PB:g=original	!	!LO:PB:g=original	!	!	!	!	!	!LO:SIC:s=-bis.	!	!LO:SIC:s=-bis.	!	!LO:SIC:s=-bis.	!	!LO:SIC:s=-bis.	!	!	!	!	!	!	!	!	!	!	!	!	!	!	!LO:PB:g=original	!	!	!	!	!	!	!	!	!	!	!
8AA/L	2.aa\ 2.ee\ 2.cc#X\ 2.a\	.	8AA/L	.	8A/L	.	16e/LL 16c#X/	.	8aa\ 8a\	.	2AA/	-bis	2c#X\	-bis	2a\	-bis	2a\	-bis	2.r	2.AA/	.	.	.	.	.	2.A/	.	2.a\	.	2.AA/_	.	2.e\	.	2.cc#X\	.	2.aa\	.	2.a/	.	2.cc#X\	.	2.aa\	.	2.ryy
.	.	.	.	.	.	.	16e/ 16c#/	.	.	.	.	.	.	.	.	.	.	.	.	.	.	.	.	.	.	.	.	.	.	.	.	.	.	.	.	.	.	.	.	.	.	.	.	.
8AA/	.	.	8AA/	.	8A/	.	16e/ 16c#/	.	4aa\ 4a\	.	.	.	.	.	.	.	.	.	.	.	.	.	.	.	.	.	.	.	.	.	.	.	.	.	.	.	.	.	.	.	.	.	.	.
.	.	.	.	.	.	.	16e/ 16c#/	.	.	.	.	.	.	.	.	.	.	.	.	.	.	.	.	.	.	.	.	.	.	.	.	.	.	.	.	.	.	.	.	.	.	.	.	.
8AA/	.	.	8AA/	.	8A/	.	16e/ 16c#/	.	.	.	.	.	.	.	.	.	.	.	.	.	.	.	.	.	.	.	.	.	.	.	.	.	.	.	.	.	.	.	.	.	.	.	.	.
.	.	.	.	.	.	.	16e/ 16c#/	.	.	.	.	.	.	.	.	.	.	.	.	.	.	.	.	.	.	.	.	.	.	.	.	.	.	.	.	.	.	.	.	.	.	.	.	.
8AA/	.	.	8AA/	.	8A/	.	16e/ 16c#/	.	4aa\ 4a\	.	.	.	.	.	.	.	.	.	.	.	.	.	.	.	.	.	.	.	.	.	.	.	.	.	.	.	.	.	.	.	.	.	.	.
.	.	.	.	.	.	.	16e/ 16c#/	.	.	.	.	.	.	.	.	.	.	.	.	.	.	.	.	.	.	.	.	.	.	.	.	.	.	.	.	.	.	.	.	.	.	.	.	.
8AA/	.	.	8AA/	.	8A/	.	16e/ 16c#/	.	.	.	4r	.	4r	.	4r	.	4r	.	.	.	.	.	.	.	.	.	.	.	.	.	.	.	.	.	.	.	.	.	.	.	.	.	.	.
.	.	.	.	.	.	.	16e/ 16c#/	.	.	.	.	.	.	.	.	.	.	.	.	.	.	.	.	.	.	.	.	.	.	.	.	.	.	.	.	.	.	.	.	.	.	.	.	.
8AA/J	.	.	8AA/J	.	8A/J	.	16e/ 16c#/	.	8aa\ 8a\	.	.	.	.	.	.	.	.	.	.	.	.	.	.	.	.	.	.	.	.	.	.	.	.	.	.	.	.	.	.	.	.	.	.	.
.	.	.	.	.	.	.	16e/JJ 16c#/	.	.	.	.	.	.	.	.	.	.	.	.	.	.	.	.	.	.	.	.	.	.	.	.	.	.	.	.	.	.	.	.	.	.	.	.	.
*Xtremolo	*	*	*	*	*	*	*Xtremolo	*	*	*	*	*	*	*	*	*	*	*	*	*	*	*	*	*	*	*	*	*	*	*	*	*	*	*	*	*	*	*	*	*	*	*	*	*
=60	=60	=60	=60	=60	=60	=60	=60	=60	=60	=60	=60	=60	=60	=60	=60	=60	=60	=60	=60	=60	=60	=60	=60	=60	=60	=60	=60	=60	=60	=60	=60	=60	=60	=60	=60	=60	=60	=60	=60	=60	=60	=60	=60	=60
*	*	*	*	*	*	*	*	*	*2\right	*	*	*	*	*	*	*	*	*	*	*	*	*	*	*	*	*	*	*	*	*	*	*	*	*	*	*	*	*	*	*	*	*	*	*
!	!LO:SIC:v:s=2.aa 2.ee 2.cc# 2.a;	!	!	!	!	!	!	!	!	!	!	!	!	!	!	!	!	!	!	!	!	!	!	!	!	!	!	!	!	!	!	!	!	!	!	!	!	!	!	!	!	!	!	!
2.AA/;	2.aa\ 2.ee\ 2.cc\ 2.a;\	.	2.AA;/	.	2.A;/	.	2.e/ 2.c#X;/	.	2.aa\ 2.a;\	.	2.r;	.	2.r;	.	2.r;	.	2.r;	.	2.r;	2.AA;/	.	2.r;	.	2.r;	.	2.A;/	.	2.a;\	.	2.AA;/]	.	2.e;\	.	2.cc#X;\	.	2.aa;\	.	2.a;/	.	2.cc#X;\	.	2.aa;\	.	2.ryy
!	!	!	!	!	!	!	!	!	!	!	!	!	!	!	!	!	!	!	!	!	!	!	!	!	!	!	!	!	!	!LO:TX:t=Verte Dona:mod=	!	!	!	!	!	!	!	!	!	!	!	!	!	!
==	==	==	==	==	==	==	==	==	==	==	==	==	==	==	==	==	==	==	==	==	==	==	==	==	==	==	==	==	==	==	==	==	==	==	==	==	==	==	==	==	==	==	==	==
*-	*-	*-	*-	*-	*-	*-	*-	*-	*-	*-	*-	*-	*-	*-	*-	*-	*-	*-	*-	*-	*-	*-	*-	*-	*-	*-	*-	*-	*-	*-	*-	*-	*-	*-	*-	*-	*-	*-	*-	*-	*-	*-	*-	*-
!!!system-decoration: [(ww)][(bras)][(idio)][(vox)][(str)]{(klav)}
!!!RDF**kern: > = above
!!!RDF**kern: < = below
!!LO:MO:mod
!! !!!RDF**kern: @ = marked note, color=grey
!!LO:MO:end
!!!ENC: Andrzej Borzym
!!!END: 2020-04-06
!!!ENC: Leszek Kubiak
!!!END: 2020-06-08
!!!ENC-modern: Andrzej Kubiczek
!!!END-modern: 2022-08-10
!!!filter-modern: shed -k -e "s/([^a-gA-Gn#X-])[<>]/$1/g" | shed -e "s/LO:DY:(a|b)/LO:dy:$1/L" | shed -e "s/TX(.*):t=P:/tx$1:t=P:/LG" | shed -e "s/^(\d+[\/\\]right)/$1yy/I; s/^(\d+[\/\\]left)/$1yy/I" | sic -sq | modori -m | autostem -r | tie -s | humtr -p | shed -e "s/yy//"
